!!!!SEGMENT: pl-cz--iii-278--001_goetz-gieczynski-cyryl--offertorium.krn
!!!cenid: 18xx:71
!!!COM: Goetz-Gieczyński, Cyryl
!!!COM-rismid: pe30020327
!!!CDT: 1793-1866
!!!CNT:
!!!OTL: Offertorium
!!!PDT:
!!!AGN: Sacred
!!!SMS-siglum: PL-CZ
!!!SMS-shelfmark: III-278
!!!SMS-shelfwork: 001 W
!!!NIFC-rismid:
!!!URL-scan: http://repozytorium.nifc.pl/skany/pl-cz-nut--iii-278
!!!ONB-nifc:
**kern	**dynam	**kern	**dynam	**kern	**dynam	**kern	**dynam	**kern	**text	**kern	**text	**kern	**text	**kern	**dynam	**kern	**dynam	**kern	**dynam	**kern	**dynam
*part11	*part11	*part7	*part7	*part6	*part6	*part5	*part5	*part10	*part10	*part9	*part9	*part8	*part8	*part4	*part4	*part3	*part3	*part2	*part2	*part1	*part1
*group4	*	*group4	*	*group4	*	*group4	*	*group3	*	*group3	*	*group3	*	*group2	*	*group2	*	*group1	*	*group1	*
*staff11	*	*staff7	*	*staff6	*	*staff5	*	*staff10	*staff10	*staff9	*staff9	*staff8	*staff8	*staff4	*	*staff3	*	*staff2	*	*staff1	*
*Ifagot	*	*Iviola	*	*Ivioln	*	*Ivioln	*	*Iempty	*	*Iempty	*	*Itenor	*	*Iempty	*	*Iempty	*	*Iflt	*	*Iflt	*
*I"Baſso seu Fagotto.	*	*I"Alto Viola.	*	*I"Violino 2do.	*	*I"Violino primo.	*	*I"Baſso 2do.	*	*I"Baſso 1mo.	*	*I"Tenore.	*	*I"Cornu 2do. in G.	*	*I"Cornu 1mo. in G.	*	*I"Flauto 2do.	*	*I"Flauto 1mo.	*
*I'B / F	*	*I'Vla	*	*I'Vn II	*	*I'Vn I	*	*I'B II	*	*I'B I	*	*I'T	*	*I'Cor II	*	*I'Cor I	*	*I'Fl II	*	*I'Fl I	*
*clefF4	*	*clefC3	*	*clefG2	*	*clefG2	*	*clefF4	*	*clefF4	*	*clefC4	*	*clefG2	*	*clefG2	*	*clefG2	*	*clefG2	*
*	*	*	*	*	*	*	*	*	*	*	*	*	*	*ITrd3c5	*	*ITrd3c5	*	*	*	*	*
*k[f#]	*	*k[f#]	*	*k[f#]	*	*k[f#]	*	*k[f#]	*	*k[f#]	*	*k[f#]	*	*k[f#]	*	*k[f#]	*	*k[f#]	*	*k[f#]	*
*G:	*	*G:	*	*G:	*	*G:	*	*G:	*	*G:	*	*G:	*	*	*	*	*	*G:	*	*G:	*
*M2/4	*	*M2/4	*	*M2/4	*	*M2/4	*	*M2/4	*	*M2/4	*	*M2/4	*	*M2/4	*	*M2/4	*	*M2/4	*	*M2/4	*
*	*	*	*	*	*below	*	*	*	*	*	*	*	*	*	*	*	*	*	*	*	*
!	!	!	!	!LO:TX:a:Bi:t=Andte	!	!	!	!	!	!	!	!	!	!	!	!	!	!	!	!	!
!	!	!LO:TX:a:i:t=Andante	!	!	!	!	!	!	!	!	!	!	!	!	!	!	!	!	!	!	!
!	!	!	!	!	!	!	!	!	!	!	!	!	!	!	!	!	!	!LO:TX:a:Bi:t=Andantino	!	!LO:TX:a:Bi:t=Andante	!
!LO:TX:a:t=P:problem:na okładce nazwa partii wpisana jako "Baſso sive Fagotto"	!	!	!	!LO:TX:a:t=P:problem:na okładce nazwa partii wpisana z rozwinięciem "Violino Secundo"	!	!	!	!	!	!LO:TX:a:t=P:problem:na okładce nazwa partii wpisana jako "Baſso 1mo sive Alto"	!	!LO:TX:a:t=P:problem:na okładce nazwa partii wpisana jako "Tenore sive Canto"	!	!LO:TX:a:t=P:problem:na okładce nazwa partii wpisana bez określenia stroju "in G"	!	!LO:TX:a:t=P:problem:na okładce nazwa partii wpisana bez określenia stroju "in G"	!	!	!	!	!
8D\	.	8d\	f	8d/	.	8d/	.	8ryy	.	8ryy	.	8ryy	.	8r	.	8r	.	8r	.	8r	.
.	.	.	.	.	ff	.	.	.	.	.	.	.	.	.	.	.	.	.	.	.	.
=1	=1	=1	=1	=1	=1	=1	=1	=1	=1	=1	=1	=1	=1	=1	=1	=1	=1	=1	=1	=1	=1
*	*	*	*	*	*	*	*below	*	*	*	*	*	*	*	*	*	*	*	*	*	*
!	!LO:DY:t=ff.	!	!	!	!	!	!	!LO:TX:a:t=7.	!	!	!	!LO:TX:a:t=7.	!	!	!LO:DY:rj:t=f	!	!LO:DY:rj:t=f	!	!	!	!
!LO:TX:a:B:t=Adte	!	!	!	!	!	!LO:TX:a:Bi:t=Andante.	!	!LO:TX:a:i:t=Andte	!	!LO:TX:a:i:t=Andte	!	!LO:TX:a:Bi:t=Andte	!	!LO:TX:a:Bi:t=Andte	!	!LO:TX:a:Bi:t=Andte	!	!	!	!	!
!	!	!	!	!	!	!	!	!LO:N:vis=00	!	!LO:N:vis=00	!	!LO:N:vis=00	!	!	!	!	!	!	!	!	!
16GG/LL	ff	16G/LL	.	16g\LL	.	16g\LL	ff	0r	.	0r	.	0r	.	8G/	f	8g\	f	4r	.	4r	.
16GG/JJ	.	16G/JJ	.	16g\JJ	.	16g\JJ	.	.	.	.	.	.	.	.	.	.	.	.	.	.	.
32GG/LLL	.	32G/LLL	.	32g\LLL	.	32g\LLL	.	.	.	.	.	.	.	8r	.	8r	.	.	.	.	.
32AA/	.	32A/	.	32a\	.	32a\	.	.	.	.	.	.	.	.	.	.	.	.	.	.	.
32BB/	.	32B/	.	32b\	.	32b\	.	.	.	.	.	.	.	.	.	.	.	.	.	.	.
32C/JJJ	.	32c/JJJ	.	32cc\JJJ	.	32cc\JJJ	.	.	.	.	.	.	.	.	.	.	.	.	.	.	.
16D\LL	.	16d\LL	.	16dd\LL	.	16dd\LL	.	.	.	.	.	.	.	8D/	.	8d/	.	8r	.	8r	.
16D\JJ	.	16d\JJ	.	16dd\JJ	.	16dd\JJ	.	.	.	.	.	.	.	.	.	.	.	.	.	.	.
!	!	!	!	!	!	!	!	!	!	!	!	!	!	!	!	!	!	!	!	!	!LO:DY:t=f
32D\LLL	.	32d\LLL	.	32dd\LLL	.	32dd\LLL	.	.	.	.	.	.	.	8r	.	8r	.	8dd\	f	8dd\	f
32E\	.	32e\	.	32ee\	.	32ee\	.	.	.	.	.	.	.	.	.	.	.	.	.	.	.
32F#\	.	32f#\	.	32ff#\	.	32ff#\	.	.	.	.	.	.	.	.	.	.	.	.	.	.	.
32D\JJJ	.	32d\JJJ	.	32dd\JJJ	.	32dd\JJJ	.	.	.	.	.	.	.	.	.	.	.	.	.	.	.
=2	=2	=2	=2	=2	=2	=2	=2	=2	=2	=2	=2	=2	=2	=2	=2	=2	=2	=2	=2	=2	=2
!LO:TX:a:t=P:problem:mixed beam	!	!	!	!LO:TX:a:t=P:problem:mixed beam	!	!LO:TX:a:t=P:problem:mixed beam	!	!	!	!	!	!	!	!	!	!	!	!	!	!	!
8G\L	.	16G/LL	.	8gg\L	.	8gg\L	.	.	.	.	.	.	.	8G/L	.	8g\L	.	16g/LL	.	16gg\LL	.
.	.	16G/JJ	.	.	.	.	.	.	.	.	.	.	.	.	.	.	.	16g/JJ	.	16gg\JJ	.
8GG/J	.	32G/LLL	.	8g/J	.	8g/J	.	.	.	.	.	.	.	8G/J	.	8g\J	.	32g/LLL	.	32gg\LLL	.
.	.	32A/	.	.	.	.	.	.	.	.	.	.	.	.	.	.	.	32a/	.	32aa\	.
.	.	32B/	.	.	.	.	.	.	.	.	.	.	.	.	.	.	.	32b/	.	32bb\	.
.	.	32c/JJJ	.	.	.	.	.	.	.	.	.	.	.	.	.	.	.	32cc/JJJ	.	32ccc\JJJ	.
8r	.	16d\LL	.	8r	.	8r	.	.	.	.	.	.	.	8D/L	.	8d/L	.	16dd\LL	.	16ddd\LL	.
.	.	16d\JJ	.	.	.	.	.	.	.	.	.	.	.	.	.	.	.	16dd\JJ	.	16ddd\JJ	.
8D\	.	32d\LLL	.	8dd\	.	8dd\	.	.	.	.	.	.	.	8D/J	.	8d/J	.	32dd\LLL	.	32dd\LLL	.
.	.	32e\	.	.	.	.	.	.	.	.	.	.	.	.	.	.	.	32ee\	.	32ee\	.
.	.	32f#\	.	.	.	.	.	.	.	.	.	.	.	.	.	.	.	32ff#\	.	32ff#\	.
.	.	32d\JJJ	.	.	.	.	.	.	.	.	.	.	.	.	.	.	.	32dd\JJJ	.	32dd\JJJ	.
=3	=3	=3	=3	=3	=3	=3	=3	=3	=3	=3	=3	=3	=3	=3	=3	=3	=3	=3	=3	=3	=3
16G\LL	.	16g\LL	.	16gg\LL	.	16gg\LL	.	.	.	.	.	.	.	16G/LL	.	16g/LL	.	16gg\LL	.	16ggg\LL	.
16G\JJ	.	16g\JJ	.	16gg\JJ	.	16gg\JJ	.	.	.	.	.	.	.	16G/J	.	16g/JJ	.	16gg\JJ	.	16ggg\JJ	.
32G\LLL	.	32g\LLL	.	32gg\LLL	.	32gg\LLL	.	.	.	.	.	.	.	8G/J	.	8g\	.	32gg\LLL	.	32ggg\LLL	.
32F#\	.	32f#\	.	32ff#\	.	32ff#\	.	.	.	.	.	.	.	.	.	.	.	32ff#\	.	32fff#\	.
32E\	.	32e\	.	32ee\	.	32ee\	.	.	.	.	.	.	.	.	.	.	.	32ee\	.	32eee\	.
32D#X\JJJ	.	32d#X\JJJ	.	32dd#X\JJJ	.	32dd#X\JJJ	.	.	.	.	.	.	.	.	.	.	.	32dd#X\JJJ	.	32ddd#X\JJJ	.
!	!	!LO:LB:g=original	!	!	!	!	!	!	!	!	!	!	!	!	!	!	!	!	!	!	!
16E\LL	.	16e\LL	.	16ee\LL	.	16ee\LL	.	.	.	.	.	.	.	4r	.	4r	.	16ee\LL	.	16eee\LL	.
16E\JJ	.	16e\JJ	.	16ee\JJ	.	16ee\JJ	.	.	.	.	.	.	.	.	.	.	.	16ee\JJ	.	16eee\JJ	.
32E\LLL	.	32e\LLL	.	32ee\LLL	.	32ee\LLL	.	.	.	.	.	.	.	.	.	.	.	32ee\LLL	.	32eee\LLL	.
32D#\	.	32d#\	.	32dd#\	.	32ddn\	.	.	.	.	.	.	.	.	.	.	.	32ddn\	.	32ddd#\	.
32C\	.	32c\	.	32cc\	.	32cc\	.	.	.	.	.	.	.	.	.	.	.	32cc\	.	32ccc\	.
32BB\JJJ	.	32B\JJJ	.	32b\JJJ	.	32b\JJJ	.	.	.	.	.	.	.	.	.	.	pp	32b\JJJ	.	32bb\JJJ	.
!	!	!	!	!	!	!	!	!	!	!	!	!	!	!	!	!	!	!	!	!LO:LB:g=original	!
=4	=4	=4	=4	=4	=4	=4	=4	=4	=4	=4	=4	=4	=4	=4	=4	=4	=4	=4	=4	=4	=4
*	*	*tremolo	*	*	*	*	*	*	*	*	*	*	*	*tremolo	*	*tremolo	*	*	*	*	*
*	*	*	*	*	*	*	*	*	*	*	*	*	*	*	*	*2\right	*	*	*	*	*
!	!	!LO:TX:b:t=P:problem:osiem kropek pod nutą	!	!	!	!	!	!	!	!	!	!	!	!LO:TX:b:t=P:problem:osiem kropek pod nutą	!	!	!	!	!	!	!
!	!	!	!	!	!	!	!	!	!	!	!	!	!	!	!	!LO:TX:a:t=P:problem:osiem pionowych kreseczek nad nutą	!	!	!	!	!
!	!	!	!LO:DY:rj	!	!LO:DY:rj	!	!	!	!	!	!	!	!	!	!LO:DY:rj	!	!	!	!	!	!LO:DY:t=p
8D\	p	16dLL 16A`/	p	16c/	p	16cc\	p	.	.	.	.	.	.	16d'/LL	p	16a`\LL	.	16cc\	p	16cc\	p
.	.	16d 16A`/	.	16r	.	16r	.	.	.	.	.	.	.	16d'/	.	16a`\	.	16r	.	16r	.
8r	.	16d 16A'/	.	16f#/	.	16ff#\	.	.	.	.	.	.	.	16d'/	.	16a`\	.	16f#/	.	16ff#\	.
.	.	16d 16A'/	.	16r	.	16r	.	.	.	.	.	.	.	16d'/	.	16a`\	.	16r	.	16r	.
4r	.	16d 16A'/	.	8a/	.	8aa\	.	.	.	.	.	.	.	16d'/	.	16a`\	.	8a/	.	8aa\	.
.	.	16d 16A'/	.	.	.	.	.	.	.	.	.	.	.	16d'/	.	16a`\	.	.	.	.	.
.	.	16d 16A'/	.	8r	.	8r	.	.	.	.	.	.	.	16d'/	.	16a`\	.	8r	.	8r	.
.	.	16dJJ 16A'/	.	.	.	.	.	.	.	.	.	.	.	16d'/JJ	.	16a`\JJ	.	.	.	.	.
*	*	*Xtremolo	*	*	*	*	*	*	*	*	*	*	*	*	*	*	*	*	*	*	*
!LO:LB:g=original	!	!	!	!LO:LB:g=original	!	!LO:LB:g=original	!	!	!	!	!	!	!	!	!	!	!	!LO:LB:g=original	!	!	!
=5	=5	=5	=5	=5	=5	=5	=5	=5	=5	=5	=5	=5	=5	=5	=5	=5	=5	=5	=5	=5	=5
!	!	!	!	!	!	!	!	!LO:N:vis=0	!	!LO:N:vis=0	!	!LO:N:vis=0	!	!LO:TX:b:t=P:problem:osiem kropek pod nutą	!	!LO:TX:a:t=P:problem:osiem pionowych kreseczek nad nutą	!	!	!	!	!
8D\	.	16dLL 16A'/	.	16cc\	.	16ccc\	.	1r	.	1r	.	1r	.	16d'/LL	.	16a`\LL	.	16cc\	.	16ccc\	.
.	.	16d 16A'/	.	16r	.	16r	.	.	.	.	.	.	.	16d'/	.	16a`\	.	16r	.	16r	.
8r	.	16d 16A'/	.	16a/	.	16aa\	.	.	.	.	.	.	.	16d'/	.	16a`\	.	16a/	.	16aa\	.
.	.	16dJJ 16A'/	.	16r	.	16r	.	.	.	.	.	.	.	16d'/	.	16a`\	.	16r	.	16r	.
*	*	*tremolo	*	*	*	*	*	*	*	*	*	*	*	*	*	*	*	*	*	*	*
!	!	!LO:TX:b:t=P:problem:cztery kropki pod nutą	!	!	!	!	!	!	!	!	!	!	!	!	!	!	!	!	!	!	!
4r	.	16dLL 16A'/	.	8f#/	.	8ff#\	.	.	.	.	.	.	.	16d'/	.	16a`\	.	8f#/	.	8ff#\	.
.	.	16d 16A'/	.	.	.	.	.	.	.	.	.	.	.	16d'/	.	16a`\	.	.	.	.	.
.	.	16d 16A'/	.	8r	.	8r	.	.	.	.	.	.	.	16d'/	.	16a`\	.	8r	.	8r	.
.	.	16dJJ 16A'/	.	.	.	.	.	.	.	.	.	.	.	16d'/JJ	.	16a`\JJ	.	.	.	.	.
*	*	*Xtremolo	*	*	*	*	*	*	*	*	*	*	*	*Xtremolo	*	*Xtremolo	*	*	*	*	*
!	!	!	!	!	!	!	!	!	!	!	!	!	!	!LO:LB:g=original	!	!LO:LB:g=original	!	!	!	!	!
=6	=6	=6	=6	=6	=6	=6	=6	=6	=6	=6	=6	=6	=6	=6	=6	=6	=6	=6	=6	=6	=6
!	!LO:DY:t=ff	!	!LO:DY:rj	!	!LO:DY:rj:t=fo&colon;	!	!LO:DY:rj:t=fo.	!	!	!	!	!	!	!	!LO:DY:rj	!	!LO:DY:rj:t=f.	!	!LO:DY:rj:t=f.	!	!LO:DY:rj:t=f.
32G\LLL	ff	32G/LLL	f	32g/LLL	f	32gg\LLL	f	.	.	.	.	.	.	16G/LL	f	16g\LL	f	32g\LLL	f	32gg\LLL	f
32A\	.	32A/	.	32a/	.	32aa\	.	.	.	.	.	.	.	.	.	.	.	32a\	.	32aa\	.
32B\	.	32B/	.	32b/	.	32bb\	.	.	.	.	.	.	.	16G/J	.	16g\J	.	32b\	.	32bb\	.
32c\JJJ	.	32c/JJJ	.	32cc/JJJ	.	32ccc\JJJ	.	.	.	.	.	.	.	.	.	.	.	32cc\JJJ	.	32ccc\JJJ	.
!LO:TX:a:t=P:problem:mixed beam	!	!LO:TX:a:t=P:problem:mixed beam	!	!LO:TX:a:t=P:problem:mixed beam	!	!	!	!	!	!	!	!	!	!	!	!	!	!	!	!	!
16d\LL	.	16d\LL	.	16dd\LL	.	16ddd\LL	.	.	.	.	.	.	.	8G/J	.	8g\J	.	16dd\LL	.	16ddd\LL	.
16D/JJ	.	16D/JJ	.	16d/JJ	.	16dd\JJ	.	.	.	.	.	.	.	.	.	.	.	16dd\JJ	.	16dd\JJ	.
32E\LLL	.	32E/LLL	.	32e/LLL	.	32ee\LLL	.	.	.	.	.	.	.	4r	.	4r	.	32e/LLL	.	32ee\LLL	.
32F#\	.	32F#/	.	32f#/	.	32ff#\	.	.	.	.	.	.	.	.	.	.	.	32f#/	.	32ff#\	.
32G\	.	32G/	.	32g/	.	32gg\	.	.	.	.	.	.	.	.	.	.	.	32g/	.	32gg\	.
32A\JJJ	.	32A/JJJ	.	32a/JJJ	.	32aa\JJJ	.	.	.	.	.	.	.	.	.	.	.	32a/JJJ	.	32aa\JJJ	.
16B\LL	.	16B/LL	.	16b\LL	.	16bb\LL	.	.	.	.	.	.	.	.	.	.	.	16b\LL	.	16bb\LL	.
16c\JJ	.	16c/JJ	.	16cc\JJ	.	16ccc#X\JJ	.	.	.	.	.	.	.	.	.	.	.	16cc\JJ	.	16ccc\JJ	.
=7	=7	=7	=7	=7	=7	=7	=7	=7	=7	=7	=7	=7	=7	=7	=7	=7	=7	=7	=7	=7	=7
!LO:TX:a:t=P:problem:mixed beam	!	!	!	!LO:TX:a:t=P:problem:mixed beam	!	!LO:TX:a:t=P:problem:mixed beam	!	!	!	!	!	!	!	!	!	!	!	!	!	!	!
16d\LL	.	16d\LL	.	16dd\LL	.	16ddd\LL	.	2r	.	2r	.	2r	.	8D/L	.	8d/L	.	16dd\LL	.	16ddd\LL	.
32D/L	.	32d\L	.	32d/L	.	32d/L	.	.	.	.	.	.	.	.	.	.	.	32dd\L	.	32dd\L	.
32C#X/JJJ	.	32c#X\JJJ	.	32c#X/JJJ	.	32c#X/JJJ	.	.	.	.	.	.	.	.	.	.	.	32cc#X\JJJ	.	32cc#X\JJJ	.
16D\LL	.	32d\LLL	.	32d/LLL	.	32d/LLL	.	.	.	.	.	.	.	8D/	.	8d/	.	32d/LLL	.	32dd\LLL	.
.	.	32e\	.	32e/	.	32e/	.	.	.	.	.	.	.	.	.	.	.	32e/	.	32ee\	.
16D\JJ	.	32f#\	.	32f#/	.	32f#/	.	.	.	.	.	.	.	.	.	.	.	32f#/	.	32ff#\	.
.	.	32d\JJJ	.	32d/JJJ	.	32d/JJJ	.	.	.	.	.	.	.	.	.	.	.	32d/JJJ	.	32dd\JJJ	.
!	!	!LO:LB:g=original	!	!	!	!	!	!	!	!	!	!	!	!	!	!	!	!	!	!LO:LB:g=original	!
8GG/	.	16G/LL	.	16g/LL	.	16g/LL	.	.	.	.	.	.	.	8G/	.	8g/	.	16g/LL	.	16gg\LL	.
.	.	16A/	.	16a/	.	16a/	.	.	.	.	.	.	.	.	.	.	.	16a/	.	16aa\	.
8C#X/	.	16B/	.	16b/	.	16b/	.	.	.	.	.	.	.	8G/J	.	8g/J	.	16b/	.	16bb\	.
.	.	16c#X/JJ	.	16cc#X/JJ	.	16cc#X/JJ	.	.	.	.	.	.	.	.	.	.	.	16cc#X/JJ	.	16ccc#X\JJ	.
=8	=8	=8	=8	=8	=8	=8	=8	=8	=8	=8	=8	=8	=8	=8	=8	=8	=8	=8	=8	=8	=8
8D\	.	8f#\	.	8dd\	.	8dd\	.	2r;	.	2r;	.	8r	.	8d/	.	8a\	.	8ff#\	.	8ddd\	.
4D;\	.	4d 4D;/	.	4ff#X 4a 4d;\	.	4ff# 4a 4d;\	.	.	.	.	.	4r;	.	4d;;/	.	4a;\	.	4ff#;\	.	4ddd;\	.
.	pp	.	.	.	.	.	.	.	.	.	.	.	.	.	.	.	.	.	.	.	.
!	!	!	!	!	!	!	!	!	!	!	!	!LO:TX:a:i:t=Solo	!	!	!	!	!	!	!	!	!
8r	.	8r	p	8r	.	8d/	.	.	.	.	.	8D/	Sal-	8r	.	8r	.	8r	.	8r	.
.	.	.	.	.	p	.	pp	.	.	.	.	.	.	.	p	.	p	.	.	.	.
!	!	!	!	!LO:LB:g=original	!	!	!	!	!	!	!	!	!	!	!	!	!	!	!	!	!
=9	=9	=9	=9	=9	=9	=9	=9	=9	=9	=9	=9	=9	=9	=9	=9	=9	=9	=9	=9	=9	=9
!	!	!	!	!	!LO:DY:rj	!	!	!LO:TX:a:t=29.	!	!LO:TX:a:t=14.	!	!	!	!	!	!	!	!	!LO:DY:rj:t=p.	!	!LO:DY:t=p.
4G\	.	8G/	.	8d 8B/	p	8b\L	.	2r	.	2r	.	8B\	-ve	8G/	.	8B/	.	8gg\L	p	8bb\L	p
.	.	8r	.	8r	.	8g\	.	.	.	.	.	8G\	sal-	8r	.	8r	.	8bb\	.	8ddd\	.
4r	.	8G/	.	8d 8B/	.	8a\	.	.	.	.	.	8A\	-ve	8G/	.	8B/	.	8gg\	.	8bb\	.
.	.	8r	.	8r	.	8b\J	.	.	.	.	.	8B\	Re-	8r	.	8r	.	8bb\J	.	8ddd\J	.
!	!	!	!	!	!	!LO:LB:g=original	!	!	!	!	!	!	!	!	!	!	!	!LO:LB:g=original	!	!	!
=10	=10	=10	=10	=10	=10	=10	=10	=10	=10	=10	=10	=10	=10	=10	=10	=10	=10	=10	=10	=10	=10
8D\L	.	8F#/L	.	8dL 8c/	.	16b\LL	.	2r	.	2r	.	16B\LL	-gi-	4r	.	4r	.	8bb\L	.	8ddd\L	.
.	.	.	.	.	.	16a\	.	.	.	.	.	16A\JJ	.	.	.	.	.	.	.	.	.
8F#\	.	8F#/	.	8d 8c/	.	16cc\	.	.	.	.	.	16c\LL	.	.	.	.	.	8aa\J	.	8ccc\J	.
.	.	.	.	.	.	16a\JJ	.	.	.	.	.	16A\JJ	.	.	.	.	.	.	.	.	.
8G\J	.	8G/J	.	8dJ 8B/	.	8g\L	.	.	.	.	.	8G\	-na	8B/L	.	8B/L	.	8gg\	.	8bb\	.
8r	.	8r	.	8r	.	8b\J	.	.	.	.	.	8B\	sal-	8B/J	.	8B/J	.	8r	.	8r	.
!LO:LB:g=original	!	!	!	!	!	!	!	!	!	!	!	!	!	!	!	!	!	!	!	!	!
=11	=11	=11	=11	=11	=11	=11	=11	=11	=11	=11	=11	=11	=11	=11	=11	=11	=11	=11	=11	=11	=11
!	!	!	!	!	!	!	!	!	!	!	!	!	!	!LO:TX:a:t=1	!	!	!	!	!	!	!
8D\L	.	8d\	.	8f#/	.	8a/	.	2r	.	2r	.	16A\LL	-ve	2r	.	2r	.	8ff#\L	.	16aa\LL	.
.	.	.	.	.	.	.	.	.	.	.	.	16d\JJ	.	.	.	.	.	.	.	16ddd\	.
8G\J	.	8r	.	8r	.	8r	.	.	.	.	.	16B\LL	Re-	.	.	.	.	8gg\	.	16bb\	.
.	.	.	.	.	.	.	.	.	.	.	.	16G\JJ	.	.	.	.	.	.	.	16gg\JJ	.
!LO:TX:a:t=P:problem:mixed beam	!	!	!	!	!	!	!	!	!	!	!	!	!	!	!	!	!	!	!	!	!
8A\L	.	4G/	.	8d/L	.	8f#/L	.	.	.	.	.	(8F#/	-gi-	.	.	.	.	8dd\	.	8ff#\L	.
8AA/J	.	.	.	8c#X/J	.	8e/J	.	.	.	.	.	8E/)	.	.	.	.	.	8cc#X\J	.	8ee\J	.
!	!	!	!	!	!	!	!	!	!	!	!	!	!	!LO:LB:g=original	!	!	!	!	!	!	!
=12	=12	=12	=12	=12	=12	=12	=12	=12	=12	=12	=12	=12	=12	=12	=12	=12	=12	=12	=12	=12	=12
8D\	.	4d\	.	8A/	.	8d/	.	2r	.	2r	.	8D/	-na,	8r	.	8r	.	8r	.	8r	.
8r	.	.	.	8r	.	8r	.	.	.	.	.	8r	.	8d/L	.	8a\L	.	8ff#\L	.	8ddd\L	.
8r	.	4r	.	4r	.	8r	.	.	.	.	.	8r	.	8d/J	.	8a\J	.	8ff#\J	.	8ddd\J	.
8r	.	.	.	.	.	8d/	.	.	.	.	.	8D/	Ma-	8r	.	8r	.	8r	.	8r	.
!	!	!	!	!	!	!	!	!	!	!	!	!LO:LB:g=original	!	!	!	!LO:LB:g=original	!	!	!	!LO:LB:g=original	!
=13	=13	=13	=13	=13	=13	=13	=13	=13	=13	=13	=13	=13	=13	=13	=13	=13	=13	=13	=13	=13	=13
!	!	!	!	!	!	!	!	!	!	!	!	!	!	!LO:TX:a:t=3.	!	!LO:TX:a:t=3.	!	!	!	!	!
!	!	!	!	!	!	!	!	!	!	!	!	!	!	!LO:N:vis=0	!	!LO:N:vis=0	!	!	!	!	!
8D\	.	8r	.	8r	.	8r	.	2r	.	2r	.	8c\	-ter	1r	.	1r	.	8aa\L	.	8ccc\L	.
!	!	!LO:TX:a:t=fis:problem:korekta zapisu	!	!	!	!	!	!	!	!	!	!	!	!	!	!	!	!	!	!	!
8r	.	8f#\	.	8a\	.	8cc\	.	.	.	.	.	8c\	mi-	.	.	.	.	8aa\J	.	8ccc\J	.
8D\	.	8r	.	8r	.	8r	.	.	.	.	.	8e\	-ſe-	.	.	.	.	8ccc\L	.	8eee\L	.
8r	.	8f#\	.	8a\	.	8cc\	.	.	.	.	.	(16d\LL	-ri-	.	.	.	.	16bb\L	.	16ddd\L	.
.	.	.	.	.	.	.	.	.	.	.	.	16c\JJ)	.	.	.	.	.	16aa\JJ	.	16ccc\JJ	.
!	!	!LO:LB:g=original	!	!	!	!	!	!	!	!	!	!	!	!	!	!	!	!	!	!	!
=14	=14	=14	=14	=14	=14	=14	=14	=14	=14	=14	=14	=14	=14	=14	=14	=14	=14	=14	=14	=14	=14
8G\	.	8r	.	8r	.	8r	.	2r	.	2r	.	16B\	-čor-	.	.	.	.	16gg\LL	.	16bb\LL	.
.	.	.	.	.	.	.	.	.	.	.	.	16c\	-di-	.	.	.	.	16aa\JJ	.	16ccc\JJ	.
8r	.	8g\	.	8b\	.	8dd\	.	.	.	.	.	4d\	-ae,	.	.	.	.	4bb\	.	4ddd\	.
8BB/	.	8r	.	8r	.	8r	.	.	.	.	.	.	.	.	.	.	.	.	.	.	.
8r	.	8B/	.	8g/	.	8b\	.	.	.	.	.	8G/	vi-	.	.	.	.	8gg\	.	8bb\	.
=15	=15	=15	=15	=15	=15	=15	=15	=15	=15	=15	=15	=15	=15	=15	=15	=15	=15	=15	=15	=15	=15
!	!	!	!	!	!	!	!	!	!	!	!	!LO:TX:a:t=P:problem:mixed beam	!	!	!	!	!	!	!	!	!
8C/	.	16e\LL	.	16a/LL	.	16cc\LL	.	2r	.	2r	.	16E/LL	-ta	2r	.	2r	.	16aa\LL	.	16ccc\LL	.
.	.	16e\	.	16a/	.	16cc\	.	.	.	.	.	16e\JJ	.	.	.	.	.	16aa\	.	16ccc\	.
8r	.	16e\	.	16a/	.	16cc\	.	.	.	.	.	16c\LL	dul-	.	.	.	.	16aa\	.	16ccc\	.
.	.	16e\JJ	.	16a/JJ	.	16cc\JJ	.	.	.	.	.	16A\JJ	.	.	.	.	.	16aa\JJ	.	16ccc\JJ	.
8D\L	.	8d\L	.	8g/L	.	8b\L	.	.	.	.	.	8G/	-če-	.	.	.	.	16gg\LL	.	16bb\LL	.
.	.	.	.	.	.	.	.	.	.	.	.	.	.	.	.	.	.	16gg\	.	16bb\	.
8D\J	.	8d\J	.	8f#/J	.	8a\J	.	.	.	.	.	8F#/	.	.	.	.	.	16ff#\	.	16aa\	.
!	!	!	!	!	!LO:DY:t=fo:problem:za kreską taktową	!	!LO:DY:t=fo	!	!	!	!	!	!	!	!	!	!	!	!	!	!
.	.	.	.	.	f	.	f	.	.	.	.	.	.	.	.	.	.	16ff#\JJ	.	16aa\JJ	.
!	!	!	!	!LO:LB:g=original	!	!	!	!	!	!	!	!	!	!	!	!	!	!LO:LB:g=original	!	!	!
=16	=16	=16	=16	=16	=16	=16	=16	=16	=16	=16	=16	=16	=16	=16	=16	=16	=16	=16	=16	=16	=16
!	!LO:DY:rj:t=ff	!	!LO:DY:rj	!	!LO:DY:rj:t=fo	!	!	!	!	!	!	!	!	!	!	!	!	!	!	!	!
16GG/LL	ff	16G/LL	f	16G/LL	f	16g\LL	.	2r	.	2r	.	4G/	-do,	8B/L	.	8g\L	.	16g/LL	.	16gg\LL	.
32AA/L	.	32A/L	.	32A/L	.	32a\L	.	.	.	.	.	.	.	.	.	.	.	32a/L	.	32aa\L	.
32BB/JJJ	.	32B/JJJ	.	32B/JJJ	.	32b\JJJ	.	.	.	.	.	.	.	.	.	.	.	32b/JJJ	.	32bb\JJJ	.
32C\LLL	.	32c\LLL	.	32c/LLL	.	32cc\LLL	.	.	.	.	.	.	.	8B/	.	8g\	.	32cc\LLL	.	32ccc\LLL	.
32D\	.	32d\	.	32d/	.	32dd\	.	.	.	.	.	.	.	.	.	.	.	32dd\	.	32ddd\	.
32E\	.	32e\	.	32e/	.	32ee\	.	.	.	.	.	.	.	.	.	.	.	32ee\	.	32eee\	.
32F#\JJJ	.	32f#\JJJ	.	32f#/JJJ	.	32ff#\JJJ	.	.	.	.	.	.	.	.	.	.	.	32ff#\JJJ	.	32fff#X\JJJ	.
8G\	.	8g\	.	8g/	.	8gg\	.	.	.	.	.	8r	.	8B/J	.	8g\J	.	8gg\	.	8ggg\	.
8r	.	8r	.	8r	.	8r	.	.	.	.	.	8B\	et	8r	.	8r	.	8r	.	8r	.
.	p	.	p	.	.	.	.	.	.	.	.	.	.	.	.	.	.	.	.	.	.
!LO:LB:g=original	!	!	!	!	!	!LO:LB:g=original	!	!	!	!	!	!	!	!	!	!	!	!	!	!	!
=17	=17	=17	=17	=17	=17	=17	=17	=17	=17	=17	=17	=17	=17	=17	=17	=17	=17	=17	=17	=17	=17
!	!	!	!	!	!LO:DY:rj	!	!	!	!	!	!	!	!	!LO:TX:a:t=20.	!	!LO:TX:a:t=20.	!	!	!	!	!
8AA/	pp	8r	.	8r	p	8r	pp	2r	.	2r	.	8A\	et	2r	.	2r	.	8ee\L	.	8aa\L	.
8r	.	8c#X\	.	8g 8A/	.	8a 8e/	.	.	.	.	.	8A\	spes	.	.	.	.	8ee\	.	8aa\	.
8AA/	.	8r	.	8r	.	8r	.	.	.	.	.	16g\LL	noſ-	.	.	.	.	8ee\	.	8gg\	.
.	.	.	.	.	.	.	.	.	.	.	.	16f#\JJ	.	.	.	.	.	.	.	.	.
8r	.	8c#\	.	8g 8A/	.	8a 8e/	.	.	.	.	.	16e\LL	-tra	.	.	.	.	8ee\J	.	8gg\J	.
.	.	.	.	.	.	.	.	.	.	.	.	16c#X\JJ	.	.	.	.	.	.	.	.	.
!	!	!	!	!	!	!	!	!	!	!	!	!LO:LB:g=original	!	!	!	!	!	!	!	!LO:LB:g=original	!
=18	=18	=18	=18	=18	=18	=18	=18	=18	=18	=18	=18	=18	=18	=18	=18	=18	=18	=18	=18	=18	=18
8D\	.	8d\	.	8r	.	8r	.	2r	.	2r	.	8d\	šal-	2r	.	2r	.	8dd\	.	8ff#\	.
8r	.	4D/	.	8d/L	.	8f#/L	.	.	.	.	.	8A\	-ve,	.	.	.	.	8r	.	8r	.
4r	.	.	.	8f#/	.	8a/	.	.	.	.	.	8r	.	.	.	.	.	4r	.	4r	.
.	.	8r	.	8d/J	.	8f#/J	.	.	.	.	.	8A\	spes	.	.	.	.	.	.	.	.
=19	=19	=19	=19	=19	=19	=19	=19	=19	=19	=19	=19	=19	=19	=19	=19	=19	=19	=19	=19	=19	=19
*	*	*tremolo	*	*	*	*	*	*	*	*	*	*	*	*	*	*	*	*	*	*	*
*	*	*2\right	*	*	*	*	*	*	*	*	*	*	*	*	*	*	*	*	*	*	*
!	!	!LO:TX:a:t=P:problem:cztery kropki nad nutą	!	!	!	!	!	!	!	!	!	!	!	!	!	!	!	!	!	!	!
!	!	!	!	!	!	!	!	!	!	!	!	!	!	!	!	!	!	!LO:TX:a:t=1.	!	!LO:TX:a:t=1.	!
8G\	.	8e'\L	.	8g/L	.	8g\L	.	2r	.	2r	.	8B\	noſ-	2r	.	2r	.	2r	.	2r	.
8r	.	8e'\	.	8g/J	.	8b\	.	.	.	.	.	16G\	-tra	.	.	.	.	.	.	.	.
.	.	.	.	.	.	.	.	.	.	.	.	16e\	.	.	.	.	.	.	.	.	.
!LO:TX:a:t=P:problem:mixed beam	!	!	!	!	!	!	!	!	!	!	!	!	!	!	!	!	!	!	!	!	!
8A\L	.	8e'\	.	8aL 8g/	.	8dd\	.	.	.	.	.	8d\L	sal-	.	.	.	.	.	.	.	.
8AA/J	.	8e'\J	.	8aJ 8g/	.	8cc#X\J	.	.	.	.	.	8c#X\J	.	.	.	.	.	.	.	.	.
*	*	*Xtremolo	*	*	*	*	*	*	*	*	*	*	*	*	*	*	*	*	*	*	*
!	!	!LO:LB:g=original	!	!	!	!	!	!	!	!	!	!	!	!	!	!	!	!	!	!	!
=20	=20	=20	=20	=20	=20	=20	=20	=20	=20	=20	=20	=20	=20	=20	=20	=20	=20	=20	=20	=20	=20
8D\	.	8d\	.	16aLL 16f#/	.	16dd\	.	2r	.	2r	.	8d\	-ve	2r	.	2r	.	16dd\LL	.	16ddd\LL	.
.	.	.	.	16d 16A/	.	16aLL 16f#/	.	.	.	.	.	.	.	.	.	.	.	16dd\	.	16dd\	.
8r	.	8r	.	16d 16A/	.	16a 16f#/	.	.	.	.	.	8r	.	.	.	.	.	16ccn\	.	16ee\	.
.	.	.	.	16dJJ 16A/	.	16aJJ 16f#/	.	.	.	.	.	.	.	.	.	.	.	16a\JJ	.	16ff#\JJ	.
*	*	*	*	*tremolo	*	*tremolo	*	*	*	*	*	*	*	*	*	*	*	*	*	*	*
!	!	!	!	!LO:TX:b:t=P:problem:cztery kreseczki pod nutą	!	!LO:TX:b:t=P:problem:cztery kreseczki pod nutą	!	!	!	!	!	!	!	!	!	!	!	!	!	!	!
!	!	!	!	!	!	!	!	!	!	!	!	!	!	!	!	!	!	!LO:TX:a:t=P:problem:mixed beam	!	!	!
8G\	.	8G/	.	16dLL 16B`/	.	16bLL 16g`/	.	.	.	.	.	8.r	.	.	.	.	.	16b\LL	.	16gg\LL	.
.	.	.	.	16d 16B`/	.	16b 16g`/	.	.	.	.	.	.	.	.	.	.	.	16ff#\	.	16aa\	.
8r	.	8r	.	16d 16B`/	.	16b 16g`/	.	.	.	.	.	.	.	.	.	.	.	16gg\	.	16bb\	.
.	.	.	.	16dJJ 16B`/	.	16bJJ 16g`/	.	.	.	.	.	16B\	sal-	.	.	.	.	16b/JJ	.	16gg\JJ	.
*	*	*	*	*Xtremolo	*	*Xtremolo	*	*	*	*	*	*	*	*	*	*	*	*	*	*	*
=21	=21	=21	=21	=21	=21	=21	=21	=21	=21	=21	=21	=21	=21	=21	=21	=21	=21	=21	=21	=21	=21
16A\	.	8d\	.	16r	.	16r	.	2r	.	2r	.	(16d\LL	-ve	2r	.	2r	.	8r	.	8r	.
16r	.	.	.	16a/	.	16cc\	.	.	.	.	.	16c\JJ)	.	.	.	.	.	.	.	.	.
16F#\	.	8f#\	.	16r	.	16r	.	.	.	.	.	16r	.	.	.	.	.	16aa\LL	.	16ccc\LL	.
16r	.	.	.	16f#/	.	16a\	.	.	.	.	.	16A\	sal-	.	.	.	.	16ff#\JJ	.	16aa\JJ	.
16G\	.	8g\	.	16r	.	16r	.	.	.	.	.	(16c\LL	-ve	.	.	.	.	8r	.	8r	.
16r	.	.	.	16g/	.	16b\	.	.	.	.	.	16B\JJ)	.	.	.	.	.	.	.	.	.
16BB/	.	8G/	.	16r	.	16r	.	.	.	.	.	16r	.	.	.	.	.	16gg\LL	.	16bb\LL	.
16r	.	.	.	16B/	.	16g/	.	.	.	.	.	16G/	sal-	.	.	.	.	16dd\JJ	.	16gg\JJ	.
!	!	!	!	!LO:LB:g=original	!	!	!	!	!	!	!	!	!	!	!	!	!	!LO:LB:g=original	!	!	!
=22	=22	=22	=22	=22	=22	=22	=22	=22	=22	=22	=22	=22	=22	=22	=22	=22	=22	=22	=22	=22	=22
16C/	.	8c\	.	16r	.	16r	.	2r	.	2r	.	8E/	-ve	2r	.	2r	.	8cc\L	.	8ee\L	.
16r	.	.	.	16c/	.	16e/	.	.	.	.	.	.	.	.	.	.	.	.	.	.	.
16C/	.	8e\	.	16r	.	16r	.	.	.	.	.	8A/	Ma-	.	.	.	.	8cc\J	.	8ee\	.
16r	.	.	.	16c/	.	16a\	.	.	.	.	.	.	.	.	.	.	.	.	.	.	.
!LO:LB:g=original	!	!	!	!	!	!	!	!	!	!	!	!	!	!	!	!	!	!	!	!	!
16D\	.	8B/L	.	16r	.	16r	.	.	.	.	.	(8G/	-ri-	.	.	.	.	8b\L	.	8dd\	.
16r	.	.	.	16d/	.	16g/	.	.	.	.	.	.	.	.	.	.	.	.	.	.	.
16D\	.	8d/J	.	16r	.	16r	.	.	.	.	.	8F#/)	.	.	.	.	.	8ff#\J	.	8cc\J	.
16r	.	.	.	16d 16c/	.	16f#/	.	.	.	.	.	.	.	.	.	.	.	.	.	.	.
!	!	!	!	!	!	!LO:LB:g=original	!	!	!	!	!	!LO:LB:g=original	!	!	!	!	!	!	!	!	!
=23	=23	=23	=23	=23	=23	=23	=23	=23	=23	=23	=23	=23	=23	=23	=23	=23	=23	=23	=23	=23	=23
!	!	!	!	!	!	!LO:TX:a:t=P:problem:mixed beam	!	!	!	!LO:TX:a:i:t=Solo.	!	!	!	!	!	!	!	!	!	!	!
8GG/	.	8d\	.	8d 8B/	.	8g/L	.	2r	.	16r	.	8G/	-a,	2r	.	2r	.	8gg\	.	8b\	.
.	.	.	.	.	.	.	.	.	.	16D\	Ad	.	.	.	.	.	.	.	.	.	.
8r	.	8r	.	8r	.	16gg`>\L	.	.	.	16E\	te	8r	.	.	.	.	.	8r	.	8r	.
.	.	.	.	.	.	16bb`>\JJ	.	.	.	16F#\	cla-	.	.	.	.	.	.	.	.	.	.
4r	.	4r	.	4r	.	8gg\	.	.	.	(16G\LL	-ma-	4r	.	.	.	.	.	4r	.	4r	.
.	.	.	.	.	.	.	.	.	.	16A\JJ)	.	.	.	.	.	.	.	.	.	.	.
.	.	.	.	.	.	8r	.	.	.	16B\	-mus	.	.	.	.	.	.	.	.	.	.
!	!	!	!	!	!	!	!	!	!	!LO:TX:b:t=P:problem:w tekście x z haczykiem	!	!	!	!	!	!	!	!	!	!	!
.	.	.	.	.	.	.	.	.	.	16c\	ex-	.	.	.	.	.	.	.	.	.	.
=24	=24	=24	=24	=24	=24	=24	=24	=24	=24	=24	=24	=24	=24	=24	=24	=24	=24	=24	=24	=24	=24
*	*	*	*	*tremolo	*	*tremolo	*	*	*	*	*	*	*	*	*	*	*	*	*	*	*
*	*	*	*	*	*	*2\right	*	*	*	*	*	*	*	*	*	*	*	*	*	*	*
!	!	!	!	!	!LO:DY:rj	!	!LO:DY:rj	!	!	!	!	!	!	!	!	!	!	!	!	!	!
8G\L	.	8G/	.	(16g/LL	pp	(16b\LL	pp	2r	.	8B\	-u-	(16d\LL	Sal-	2r	.	2r	.	4r	.	4r	.
.	.	.	.	16b/	.	16dd\	.	.	.	.	.	16g\JJ)	.	.	.	.	.	.	.	.	.
8B\	.	8r	.	16g/	.	16b\	.	.	.	8G\	-les	8B\	-ve	.	.	.	.	.	.	.	.
.	.	.	.	16b/	.	16dd\	.	.	.	.	.	.	.	.	.	.	.	.	.	.	.
!	!	!	!	!	!	!	!	!	!	!	!	!	!	!	!	!	!	!	!	!LO:LB:g=original	!
8G\	.	8G/	.	16g/	.	16b\	.	.	.	8A\	fi-	4r	.	.	.	.	.	8r	.	16dd\LL	.
.	.	.	.	16b/	.	16dd\	.	.	.	.	.	.	.	.	.	.	.	.	.	16gg\J	.
8B\J	.	8r	.	16g/	.	16b\	.	.	.	8B\	-lii	.	.	.	.	.	.	8b\	.	8bb\J	.
.	.	.	.	16b/JJ)	.	16dd\JJ)	.	.	.	.	.	.	.	.	.	.	.	.	.	.	.
*	*	*	*	*Xtremolo	*	*Xtremolo	*	*	*	*	*	*	*	*	*	*	*	*	*	*	*
=25	=25	=25	=25	=25	=25	=25	=25	=25	=25	=25	=25	=25	=25	=25	=25	=25	=25	=25	=25	=25	=25
8D\L	.	8d\	.	(16a/LL	.	(16cc\LL	.	2r	.	16B\LL	Ĕ-	16r	.	2r	.	2r	.	8dd\L	.	8ff#\L	.
.	.	.	.	16b/	.	16dd\	.	.	.	16A\JJ	.	16d\	sal-	.	.	.	.	.	.	.	.
8D\	.	8r	.	16a/	.	16cc\	.	.	.	16c\LL	.	16e\	-ve	.	.	.	.	8cc\	.	8ff#\	.
.	.	.	.	16b/JJ)	.	16dd\JJ)	.	.	.	16A\JJ	.	16f#\	Re-	.	.	.	.	.	.	.	.
!	!	!	!	!	!	!	!	!	!	!LO:LB:g=original	!	!	!	!	!	!	!	!	!	!	!
8G\J	.	8G/	.	(16g/LL	.	(16b\LL	.	.	.	8G\	-vae;	8g\	-gi-	.	.	.	.	8b\J	.	8gg\J	.
.	.	.	.	16b/	.	16dd\	.	.	.	.	.	.	.	.	.	.	.	.	.	.	.
8r	.	8r	.	16g/	.	16b\	.	.	.	8B\	ad	8d\	-na	.	.	.	.	8r	.	8r	.
.	.	.	.	16b/JJ)	.	16dd\JJ)	.	.	.	.	.	.	.	.	.	.	.	.	.	.	.
!	!	!LO:LB:g=original	!	!	!	!	!	!	!	!	!	!	!	!	!	!	!	!	!	!	!
=26	=26	=26	=26	=26	=26	=26	=26	=26	=26	=26	=26	=26	=26	=26	=26	=26	=26	=26	=26	=26	=26
!	!	!	!	!	!	!	!	!	!	!	!	!LO:TX:a:t=1.	!	!	!	!	!	!LO:TX:a:t=2.	!	!LO:TX:a:t=1.	!
!	!	!	!	!	!	!	!	!	!	!	!	!	!	!	!	!	!	!LO:N:vis=0	!	!	!
8D\	.	8A/	.	(16f#/LL	.	(16a/LL	.	2r	.	16A\LL	te	2r	.	2r	.	2r	.	1r	.	2r	.
.	.	.	.	16d/	.	16f#/	.	.	.	16d\JJ	.	.	.	.	.	.	.	.	.	.	.
8r	.	8r	.	16f#/	.	16a/	.	.	.	16B\	sus-	.	.	.	.	.	.	.	.	.	.
.	.	.	.	16d/JJ)	.	16f#/JJ)	.	.	.	16G\	-pi-	.	.	.	.	.	.	.	.	.	.
8AA/	.	8G/	.	(16e/LL	.	(16g/LL	.	.	.	8F#\	-ra-	.	.	.	.	.	.	.	.	.	.
.	.	.	.	16c#X/	.	16e/	.	.	.	.	.	.	.	.	.	.	.	.	.	.	.
8r	.	8r	.	16e/	.	16g/	.	.	.	8E\	.	.	.	.	.	.	.	.	.	.	.
.	.	.	.	16c#/JJ)	.	16e/JJ)	.	.	.	.	.	.	.	.	.	.	.	.	.	.	.
=27	=27	=27	=27	=27	=27	=27	=27	=27	=27	=27	=27	=27	=27	=27	=27	=27	=27	=27	=27	=27	=27
*	*	*	*	*tremolo	*	*tremolo	*	*	*	*	*	*	*	*	*	*	*	*	*	*	*
!LO:TX:a:t=P:problem:mixed beam	!	!	!	!	!	!	!	!	!	!	!	!	!	!	!	!	!	!	!	!	!
8D\L	.	8F#/	.	(16d/LL	.	(16f#/LL	.	2r	.	8D\	-mus,	16r	.	2r	.	2r	.	.	.	8r	.
.	.	.	.	16A/	.	16d/	.	.	.	.	.	16d'\LL	ge-	.	.	.	.	.	.	.	.
8d\	.	8r	.	16d/	.	16f#/	.	.	.	8r	.	16e'\	-men-	.	.	.	.	.	.	(32ccc#X\LLL	.
.	.	.	.	.	.	.	.	.	.	.	.	.	.	.	.	.	.	.	.	32ddd\	.
.	.	.	.	16A/	.	16d/	.	.	.	.	.	16d'\JJ	-tes	.	.	.	.	.	.	32eee\	.
.	.	.	.	.	.	.	.	.	.	.	.	.	.	.	.	.	.	.	.	32ddd\JJJ)	.
8D/J	.	8d\	.	16d/	.	16f#/	.	.	.	8r	.	4r	.	.	.	.	.	.	.	16cccn'\LL	.
.	.	.	.	16A/	.	16d/	.	.	.	.	.	.	.	.	.	.	.	.	.	16bb'\	.
8r	.	8r	.	16d/	.	16f#/	.	.	.	8D\	ge-	.	.	.	.	.	.	.	.	16aa'\	.
.	.	.	.	16A/JJ)	.	16d/JJ)	.	.	.	.	.	.	.	.	.	.	.	.	.	16gg'\JJ	.
*	*	*	*	*Xtremolo	*	*Xtremolo	*	*	*	*	*	*	*	*	*	*	*	*	*	*	*
!	!	!	!	!LO:LB:g=original	!	!	!	!	!	!	!	!	!	!	!	!	!	!	!	!	!
=28	=28	=28	=28	=28	=28	=28	=28	=28	=28	=28	=28	=28	=28	=28	=28	=28	=28	=28	=28	=28	=28
!LO:TX:a:t=P:problem:mixed beam	!	!	!	!	!	!LO:TX:a:t=P:problem:mixed beam	!	!	!	!	!	!LO:TX:a:t=3.	!	!	!	!	!	!	!	!	!
!	!	!	!	!	!	!	!	!	!	!	!	!LO:N:vis=0	!	!	!	!	!	!	!	!	!
8D/L	.	8cn\	.	16d/LL	.	16d/LL	.	2r	.	8c\	-men-	1r	.	2r	.	2r	.	8aa\L	.	8ccc\L	.
.	.	.	.	(16a/	.	16cc\	.	.	.	.	.	.	.	.	.	.	.	.	.	.	.
8D/	.	8r	.	16f#/	.	16a\	.	.	.	8c\	-tes	.	.	.	.	.	.	8aa\J	.	8ccc\J	.
.	.	.	.	16a/JJ)	.	16cc\JJ	.	.	.	.	.	.	.	.	.	.	.	.	.	.	.
8c\	.	8c\	.	(16f#/LL	.	(16a\LL	.	.	.	8A\	et	.	.	.	.	.	.	8ff#\L	.	8aa\L	.
.	.	.	.	16a/	.	16cc\	.	.	.	.	.	.	.	.	.	.	.	.	.	.	.
8c\J	.	8r	.	16f#/	.	16a\	.	.	.	(16B\LL	.	.	.	.	.	.	.	16gg\L	.	16bb\L	.
.	.	.	.	16a/JJ)	.	16cc\JJ)	.	.	.	16c\JJ)	.	.	.	.	.	.	.	16aa\JJ	.	16ccc\JJ	.
!LO:LB:g=original	!	!	!	!	!	!	!	!	!	!	!	!	!	!	!	!	!	!	!	!	!
=29	=29	=29	=29	=29	=29	=29	=29	=29	=29	=29	=29	=29	=29	=29	=29	=29	=29	=29	=29	=29	=29
*	*	*	*	*tremolo	*	*tremolo	*	*	*	*	*	*	*	*	*	*	*	*	*	*	*
!LO:TX:a:t=P:problem:mixed beam	!	!	!	!	!	!LO:TX:a:t=P:problem:mixed beam	!	!	!	!	!	!	!	!	!	!	!	!LO:TX:a:t=3.	!	!LO:TX:a:t=3.	!
!	!	!	!	!	!	!	!	!	!	!	!	!	!	!	!	!	!	!LO:N:vis=0	!	!LO:N:vis=0	!
8B\L	.	8B/	.	(16g/LL	.	(16b\LL	.	2r	.	(16B\LL	flen-	.	.	2r	.	2r	.	1r	.	1r	.
.	.	.	.	16d/	.	16g/	.	.	.	16c\JJ)	.	.	.	.	.	.	.	.	.	.	.
8B\	.	8r	.	16g/	.	16b\	.	.	.	4d\	-tes	.	.	.	.	.	.	.	.	.	.
.	.	.	.	16d/	.	16g/	.	.	.	.	.	.	.	.	.	.	.	.	.	.	.
8G\	.	8B/	.	16g/	.	16b\	.	.	.	.	.	.	.	.	.	.	.	.	.	.	.
.	.	.	.	16d/	.	16g/	.	.	.	.	.	.	.	.	.	.	.	.	.	.	.
8BB/J	.	8r	.	16g/	.	16b\	.	.	.	16G\	in	.	.	.	.	.	.	.	.	.	.
.	.	.	.	16d/JJ)	.	16g/JJ)	.	.	.	16G\	hac	.	.	.	.	.	.	.	.	.	.
*	*	*	*	*Xtremolo	*	*Xtremolo	*	*	*	*	*	*	*	*	*	*	*	*	*	*	*
!	!	!	!	!	!	!LO:LB:g=original	!	!	!	!LO:LB:g=original	!	!	!	!	!	!	!	!	!	!	!
=30	=30	=30	=30	=30	=30	=30	=30	=30	=30	=30	=30	=30	=30	=30	=30	=30	=30	=30	=30	=30	=30
*	*	*^	*	*	*	*	*	*	*	*	*	*	*	*	*	*	*	*	*	*	*
8C/	.	4.ryy	8c\	.	(16a/LL	.	(16cc\LL	.	2r	.	16E\	la-	2r	.	2r	.	2r	.	.	.	.	.
.	.	.	.	.	16f#/	.	16a\	.	.	.	16e\	-čry-	.	.	.	.	.	.	.	.	.	.
8r	.	.	8r	.	16a/	.	16cc\	.	.	.	16c\	-ma-	.	.	.	.	.	.	.	.	.	.
.	.	.	.	.	16f#/JJ)	.	16a\JJ)	.	.	.	16A\	-rum	.	.	.	.	.	.	.	.	.	.
8D\	.	.	8d\L	.	(16g/LL	.	(16b\LL	.	.	.	(8G\L	val-	.	.	.	.	.	.	.	.	.	.
.	.	.	.	.	16b/	.	16g\	.	.	.	.	.	.	.	.	.	.	.	.	.	.	.
8r	pp	8d/	8cJ\	.	16f#/	.	16a\	.	.	.	8F#\J)	.	.	.	.	.	.	.	.	.	.	.
.	.	.	.	.	16a/JJ)	.	16cc\JJ)	.	.	.	.	.	.	.	.	.	.	.	.	.	.	.
*	*	*v	*v	*	*	*	*	*	*	*	*	*	*	*	*	*	*	*	*	*	*	*
=31	=31	=31	=31	=31	=31	=31	=31	=31	=31	=31	=31	=31	=31	=31	=31	=31	=31	=31	=31	=31	=31
2GG/	.	8G/	.	8g/L	.	8b\L	.	2r	.	4G\	-le.	16r	.	2r	.	2r	.	2r	.	2r	.
.	.	.	.	.	.	.	.	.	.	.	.	16d\	E-	.	.	.	.	.	.	.	.
.	.	8r	.	8b/	.	8dd\	.	.	.	.	.	(16g\LL	-jă	.	.	.	.	.	.	.	.
.	.	.	.	.	.	.	.	.	.	.	.	16f#\JJ)	.	.	.	.	.	.	.	.	.
.	.	8G/	.	8g/	.	8b\	.	.	.	8r	.	(16e\LL	er-	.	.	.	.	.	.	.	.
.	.	.	.	.	.	.	.	.	.	.	.	16d\JJ)	.	.	.	.	.	.	.	.	.
.	.	8r	.	8b/J	.	8dd\J	.	.	.	8B\	Ĕ-	(16c\LL	-go	.	.	.	.	.	.	.	.
.	.	.	.	.	.	.	.	.	.	.	.	16B\JJ)	.	.	.	.	.	.	.	.	.
!	!	!LO:LB:g=original	!	!	!	!	!	!	!	!	!	!LO:LB:g=original	!	!	!	!	!	!	!	!	!
=32	=32	=32	=32	=32	=32	=32	=32	=32	=32	=32	=32	=32	=32	=32	=32	=32	=32	=32	=32	=32	=32
*	*	*	*	*tremolo	*	*tremolo	*	*	*	*	*	*	*	*	*	*	*	*	*	*	*
8AA/	.	8A/	.	(16e/LL	.	(16a/LL	.	2r	.	8A\	-ja	8c#X\	Ad-	2r	.	2r	.	8ee\L	.	(16gg\LL	.
.	.	.	.	16c#X/	.	16e/	.	.	.	.	.	.	.	.	.	.	.	.	.	16aa\J)	.
8r	.	8r	.	16e/	.	16a/	.	.	.	16A\	er-	8c#\	-vo-	.	.	.	.	8cc#X\	.	8ee`\J	.
.	.	.	.	16c#X/	.	16e/	.	.	.	16A\	-go	.	.	.	.	.	.	.	.	.	.
8AA/	.	8A/	.	16e/	.	16a/	.	.	.	(16A\LL	Ad-	8A\	-ca-	.	.	.	.	8ee\	.	(16gg\LL	.
.	.	.	.	16c#X/	.	16e/	.	.	.	16e\JJ)	.	.	.	.	.	.	.	.	.	16aa\J)	.
8r	.	8r	.	16e/	.	16a/	.	.	.	(16c#X\LL	-vo-	8A\	-ta	.	.	.	.	8cc#\J	.	8ee`\J	.
.	.	.	.	16c#X/JJ)	.	16e/JJ)	.	.	.	16A\JJ)	.	.	.	.	.	.	.	.	.	.	.
!	!	!	!	!	!	!	!	!	!	!	!	!	!	!	!	!	!	!LO:LB:g=original	!	!LO:LB:g=original	!
=33	=33	=33	=33	=33	=33	=33	=33	=33	=33	=33	=33	=33	=33	=33	=33	=33	=33	=33	=33	=33	=33
8D\	.	8d\	.	(16f#/LL	.	(16a/LL	.	2r	.	8d\	-ča-	8r	.	2r	.	2r	.	8dd\L	.	8ff#\L	.
.	.	.	.	16d/	.	16f#/	.	.	.	.	.	.	.	.	.	.	.	.	.	.	.
8r	.	8r	.	16f#/	.	16a/	.	.	.	8A\	-ta	16r	.	.	.	.	.	8ff#\J	.	8ddd\J	.
.	.	.	.	16d/	.	16f#/	.	.	.	.	.	16f#\	Sal-	.	.	.	.	.	.	.	.
8D\	.	8d\	.	16f#/	.	16a/	.	.	.	8r	.	16e\	-ve	.	.	.	.	4r	.	4r	.
.	.	.	.	16d/	.	16f#/	.	.	.	.	.	16c#X\	sal-	.	.	.	.	.	.	.	.
8r	.	8r	.	16f#/	.	16a/	.	.	.	8A\	no-	8d\	-ve	.	.	.	.	.	.	.	.
.	.	.	.	16d/JJ)	.	16f#/JJ)	.	.	.	.	.	.	.	.	.	.	.	.	.	.	.
*	*	*	*	*	*	*Xtremolo	*	*	*	*	*	*	*	*	*	*	*	*	*	*	*
!	!	!	!	!	!	!	!	!	!	!LO:LB:g=original	!	!	!	!	!	!	!	!	!	!	!
=34	=34	=34	=34	=34	=34	=34	=34	=34	=34	=34	=34	=34	=34	=34	=34	=34	=34	=34	=34	=34	=34
!	!	!	!	!	!	!	!	!	!	!	!	!LO:TX:a:t=1.	!	!	!	!	!	!	!	!	!
8G\	.	8e\	.	(16g/LL	.	16b\LL	.	2r	.	8B\	-stra	2r	.	2r	.	2r	.	16gg\LL	.	16bb\LL	.
.	.	.	.	16e/	.	16g\	.	.	.	.	.	.	.	.	.	.	.	16gg\	.	16bb\	.
8r	.	8r	.	16g/	.	16b\	.	.	.	(16G\	il-	.	.	.	.	.	.	16gg\	.	16bb\	.
.	.	.	.	16e/	.	16g\JJ	.	.	.	16B\)	.	.	.	.	.	.	.	16gg\JJ	.	16bb\JJ	.
8A 8AA\	.	8g\	.	16g/	.	16cc#X\LL	.	.	.	8A\	-los	.	.	.	.	.	.	8ff#\L	.	8aa\L	.
.	.	.	.	16e/	.	16a\	.	.	.	.	.	.	.	.	.	.	.	.	.	.	.
8r	.	8r	.	16g/	.	16cc#\	.	.	.	8c#X\	tu-	.	.	.	.	.	.	8ee\J	.	8gg\J	.
.	.	.	.	16e/JJ)	.	16a\JJ	.	.	.	.	.	.	.	.	.	.	.	.	.	.	.
*	*	*	*	*Xtremolo	*	*	*	*	*	*	*	*	*	*	*	*	*	*	*	*	*
=35	=35	=35	=35	=35	=35	=35	=35	=35	=35	=35	=35	=35	=35	=35	=35	=35	=35	=35	=35	=35	=35
!	!	!	!	!	!	!	!	!	!	!	!	!	!	!	!	!	!	!LO:TX:a:t=1.	!	!LO:TX:a:t=1	!
8D\	.	8a\	.	(16a/LL	.	16dd\LL	.	2r	.	8d\	-oš	16r	.	2r	.	2r	.	2r	.	2r	.
.	.	.	.	16f#/	.	16a\	.	.	.	.	.	16f#\	mi-	.	.	.	.	.	.	.	.
8r	.	8r	.	16a/	.	16dd\	.	.	.	8r	.	16e\	-ſe-	.	.	.	.	.	.	.	.
.	.	.	.	16f#/JJ)	.	16a\JJ	.	.	.	.	.	16d\	-ri-	.	.	.	.	.	.	.	.
8G\	.	8gn\	.	16a/LL	.	16ccn\LL	.	.	.	8.r	.	16c#X\	-čor-	.	.	.	.	.	.	.	.
.	.	.	.	16g/JJ	.	16b\JJ	.	.	.	.	.	16B\	-des	.	.	.	.	.	.	.	.
8r	.	8r	.	8d/	.	8g/	.	.	.	.	.	16r	.	.	.	.	.	.	.	.	.
.	.	.	.	.	.	.	.	.	.	16B\	mi-	16G/	mi-	.	.	.	.	.	.	.	.
!LO:LB:g=original	!	!	!	!LO:LB:g=original	!	!	!	!	!	!	!	!	!	!	!	!	!	!	!	!	!
=36	=36	=36	=36	=36	=36	=36	=36	=36	=36	=36	=36	=36	=36	=36	=36	=36	=36	=36	=36	=36	=36
8D\	.	8d\	.	8f#/L	.	8a/L	.	2r	.	(16d\LL	-še-	(16B/LL	-se-	2r	.	2r	.	8r	.	8r	.
.	.	.	.	.	.	.	.	.	.	16c\JJ)	.	16A/JJ)	.	.	.	.	.	.	.	.	.
8r	.	8r	.	8a/	.	8cc/	.	.	.	16r	.	16r	.	.	.	.	.	8aa\	.	8ccc\	.
.	.	.	.	.	.	.	.	.	.	16A'\	-ri-	16F#/	-ri-	.	.	.	.	.	.	.	.
8G\	.	8g\	.	8g/	.	8b/	.	.	.	(16c\LL	-čor-	(16A/LL	-čor-	.	.	.	.	8r	.	8r	.
.	.	.	.	.	.	.	.	.	.	16B\JJ)	.	16G/JJ)	.	.	.	.	.	.	.	.	.
8r	.	8r	.	8B/J	.	8g/J	.	.	.	16r	.	16r	.	.	.	.	.	8gg\	.	8bb\	.
.	.	.	.	.	.	.	.	.	.	16G\	-des	16B\	-des	.	.	.	.	.	.	.	.
!	!	!	!	!	!	!LO:LB:g=original	!	!	!	!	!	!LO:LB:g=original	!	!	!	!	!	!	!	!	!
=37	=37	=37	=37	=37	=37	=37	=37	=37	=37	=37	=37	=37	=37	=37	=37	=37	=37	=37	=37	=37	=37
!LO:TX:a:t=P:problem:mixed beam	!	!	!	!	!	!	!	!	!	!	!	!	!	!	!	!	!	!	!	!	!
8C/L	.	8c\	.	8e 8c/	.	8cc 8a\	.	2r	.	16E\	o-	16A\	o-	4r	.	4r	.	8aa\	.	8ccc\	.
.	.	.	.	.	.	.	.	.	.	16E\	-ču-	16A\	-ču-	.	.	.	.	.	.	.	.
!	!LO:DY:t=fo.	!	!	!	!	!	!	!	!	!	!	!	!	!	!	!	!	!	!	!	!
8c\J	f	8r	f	8r	.	8r	ff	.	.	16A\	-loš	16c\	-loš	.	.	.	.	8r	.	8r	.
.	.	.	.	.	.	.	.	.	.	16A\	ad	16c\	čon-	.	.	.	.	.	.	.	.
*	*	*	*	*	*	*tremolo	*	*	*	*	*	*	*	*	*	*	*	*	*	*	*
!	!	!	!	!	!	!LO:TX:a:t=P:problem:cztery pionowe kreseczki nad nutą	!	!	!	!	!	!	!	!	!	!	!	!	!	!	!
!	!	!	!	!	!	!LO:TX:a:t=P:problem:złe wyświetlanie wartości rytmicznej tremolo	!	!	!	!	!	!	!	!	!	!	!	!	!	!	!
!LO:TX:a:t=P:problem:mixed beam	!	!	!	!	!LO:DY:t=fo	!LO:N:TREM:vis=4	!	!	!	!	!	!	!	!LO:TX:a:t=P:problem:mixed beam	!	!	!	!	!	!	!
16d\LL	.	32d\LLL	.	32g/LLL	f	32b`\LLL	.	.	.	16G\	noš	(8d\	-ver-	8g\L	.	8b\L	.	16gg\LL	.	16bb\LL	.
.	.	32d\	.	32g/	.	32b`\	.	.	.	.	.	.	.	.	.	.	.	.	.	.	.
16d\	.	32d\	.	32g/	.	32b`\	.	.	.	16G\	čon-	.	.	.	.	.	.	16gg\	.	16bb\	.
.	.	32d\JJJ	.	32g/JJJ	.	32b`\JJJ	.	.	.	.	.	.	.	.	.	.	.	.	.	.	.
!	!	!	!	!	!	!	!	!	!	!LO:LB:g=original	!	!	!	!	!	!	!	!	!	!	!
!	!	!	!	!	!	!LO:TX:b:t=P:problem:cztery kreseczki pod nutą	!	!	!	!	!	!	!	!	!	!	!	!	!	!	!
!	!	!	!	!	!	!LO:TX:a:t=P:problem:złe wyświetlanie wartości rytmicznej tremolo	!	!	!	!	!	!	!	!	!	!	!	!	!	!	!
!	!	!	!	!	!	!LO:N:TREM:vis=4	!	!	!	!	!	!	!	!	!	!	!	!	!	!	!
16D/	.	32d\LLL	.	32f#X/LLL	.	32a`/LLL	.	.	.	8F#\	-ver-	8A\)	te	8d/J	.	8a\J	.	16ff#\	.	16aa\	.
.	.	32d\	.	32f#/	.	32a`/	.	.	.	.	.	.	.	.	.	.	.	.	.	.	.
16D/JJ	.	32d\	.	32f#/	.	32a`/	.	.	.	.	.	.	.	.	.	.	.	16ff#\JJ	.	16aa\JJ	.
.	.	32d\JJJ	.	32f#/JJJ	.	32a`/JJJ	.	.	.	.	.	.	.	.	.	.	.	.	.	.	.
*	*	*	*	*	*	*Xtremolo	*	*	*	*	*	*	*	*	*	*	*	*	*	*	*
!	!	!LO:LB:g=original	!	!	!	!	!	!	!	!	!	!	!	!	!	!	!	!	!	!	!
=38	=38	=38	=38	=38	=38	=38	=38	=38	=38	=38	=38	=38	=38	=38	=38	=38	=38	=38	=38	=38	=38
!LO:TX:a:t=P:problem:mixed beam	!	!	!	!	!	!	!	!LO:TX:a:i:t=Solo.	!	!	!	!	!	!	!	!	!	!	!	!	!
8G\L	p	8d\	.	8g 8G/	.	8g 8B/	.	16r	.	8G\	-te	8G/	.	8B/	.	8g\	.	8b\	.	16gg\	.
.	.	.	.	.	.	.	.	16D\	Et	.	.	.	.	.	.	.	.	.	.	16dd\LL	.
8GG/J	.	8r	.	8r	.	8r	.	16E\	Je-	8r	.	8r	.	8r	.	8r	.	8r	.	16cc#X\	.
.	.	.	.	.	.	.	.	16F#\	-sum	.	.	.	.	.	.	.	.	.	.	16ccn\JJ	.
4r	.	4r	.	4r	pp	4r	.	16G\	be-	4r	.	4r	.	4r	.	4r	.	4r	.	16b/LL	.
.	.	.	.	.	.	.	.	16A\	-ne-	.	.	.	.	.	.	.	.	.	.	16a/	.
.	.	.	.	.	.	.	.	16B\	-dic-	.	.	.	.	.	.	.	.	.	.	16g/	.
!LO:TX:b:i:t=picʒic&colon;	!	!	!	!	!	!	!	!	!	!	!	!	!	!	!	!	!	!	!	!	!
.	.	.	.	.	.	.	pp	16c\	-tum	.	.	.	.	.	.	.	.	.	.	16f#/JJ	.
!	!	!	!	!	!	!	!	!	!	!	!	!	!	!	!	!	!	!	!	!LO:LB:g=original	!
=39	=39	=39	=39	=39	=39	=39	=39	=39	=39	=39	=39	=39	=39	=39	=39	=39	=39	=39	=39	=39	=39
!	!	!	!	!	!	!	!	!	!	!	!	!	!	!LO:TX:a:t=11.	!	!LO:TX:a:t=11.	!	!LO:TX:a:t=7.	!	!LO:TX:a:t=7.	!
!	!	!	!	!	!	!	!	!	!	!	!	!	!	!LO:N:vis=00	!	!LO:N:vis=00	!	!LO:N:vis=00	!	!LO:N:vis=00	!
8G 8GG/	.	8d\	.	8g/	.	8b\	.	8B\	fruč-	8G\	Fruč-	16r	.	0r	.	0r	.	0r	.	0r	.
.	.	.	.	.	.	.	.	.	.	.	.	16d\	O-	.	.	.	.	.	.	.	.
8r	.	8r	.	8r	.	8r	.	8G\	-tum	8d\	-tum	16e\	-ra	.	.	.	.	.	.	.	.
.	.	.	.	.	.	.	.	.	.	.	.	16f#\	pro	.	.	.	.	.	.	.	.
8G 8GG\	.	8d\	.	8g/	.	8b\	.	8A\	ven-	8B\	ven-	(16g\LL	no-	.	.	.	.	.	.	.	.
.	.	.	.	.	.	.	.	.	.	.	.	16f#,\JJ)	.	.	.	.	.	.	.	.	.
8r	.	8r	.	8r	.	8r	.	8B\	-tris	8G\	-tris	16e\	-bis	.	.	.	.	.	.	.	.
.	.	.	.	.	.	.	.	.	.	.	.	16d\	Ma-	.	.	.	.	.	.	.	.
!	!	!	!	!	!	!	!	!LO:LB:g=original	!	!	!	!	!	!	!	!	!	!	!	!	!
=40	=40	=40	=40	=40	=40	=40	=40	=40	=40	=40	=40	=40	=40	=40	=40	=40	=40	=40	=40	=40	=40
*	*	*	*	*tremolo	*	*	*	*	*	*	*	*	*	*	*	*	*	*	*	*	*
!	!	!	!	!LO:TX:b:t=P:problem:cztery kreseczki pod nutą	!	!	!	!	!	!	!	!	!	!	!	!	!	!	!	!	!
8D\L	.	8d\L	.	16a`/LL	.	16cc\LL	.	16B\LL	tu-	(8D\	tu-	8c\	-ri-	.	.	.	.	.	.	.	.
.	.	.	.	16a`/	.	16cc\	.	16A\JJ	.	.	.	.	.	.	.	.	.	.	.	.	.
8D\J	.	8d\	.	16a`/	.	16cc\	.	16G\LL	.	8D\)	.	8A\	-a,	.	.	.	.	.	.	.	.
.	.	.	.	16a`/JJ	.	16cc\JJ	.	16F#\JJ	.	.	.	.	.	.	.	.	.	.	.	.	.
*	*	*	*	*Xtremolo	*	*	*	*	*	*	*	*	*	*	*	*	*	*	*	*	*
8G\	.	8d\J	.	8g/	.	8b\	.	8G\	-i,	8G\	-i	4r	.	.	.	.	.	.	.	.	.
!	!	!LO:TX:b:i:t=picʒičato	!	!LO:TX:b:i:t=picʒičato	!	!LO:TX:b:i:t=picʒičato	!	!	!	!	!	!	!	!	!	!	!	!	!	!	!
8r	.	8r	.	8r	.	8r	.	8B\	no-	8r	.	.	.	.	.	.	.	.	.	.	.
=41	=41	=41	=41	=41	=41	=41	=41	=41	=41	=41	=41	=41	=41	=41	=41	=41	=41	=41	=41	=41	=41
!LO:TX:a:t=P:problem:mixed beam	!	!	!	!	!	!	!	!	!	!	!	!LO:TX:a:t=8.	!	!	!	!	!	!	!	!	!
!	!	!	!	!	!	!	!	!	!	!	!	!LO:N:vis=00	!	!	!	!	!	!	!	!	!
8D\L	.	8d\	.	8f#/L	.	8a/L	.	16A\LL	-bis	8D\	Je-	0r	.	.	.	.	.	.	.	.	.
.	.	.	.	.	.	.	.	16A#X\JJ	.	.	.	.	.	.	.	.	.	.	.	.	.
8G\	.	8r	.	8g/	.	8b/	.	16B\LL	post	8G\	-ſum	.	.	.	.	.	.	.	.	.	.
.	.	.	.	.	.	.	.	16e\JJ	.	.	.	.	.	.	.	.	.	.	.	.	.
8A\	.	8c#X\	.	8f#/	.	8a/	.	8d\	hoč	8A\	Je-	.	.	.	.	.	.	.	.	.	.
8AA/J	.	8r	.	8e/J	.	8g/J	.	8c#X\	post	8AA/	-ſum	.	.	.	.	.	.	.	.	.	.
!LO:LB:g=original	!	!	!	!	!	!	!	!	!	!LO:LB:g=original	!	!	!	!	!	!	!	!	!	!	!
=42	=42	=42	=42	=42	=42	=42	=42	=42	=42	=42	=42	=42	=42	=42	=42	=42	=42	=42	=42	=42	=42
8D\	.	8f#X\	.	16d/LL	.	16f#`/LL	.	8d\	hoč	16r	.	.	.	.	.	.	.	.	.	.	.
!	!	!	!	!	!	!	!	!	!	!LO:TX:b:t=P:problem:w tekście x z haczykiem	!	!	!	!	!	!	!	!	!	!	!
.	.	.	.	16d/	.	16d`/	.	.	.	16d\	ex-	.	.	.	.	.	.	.	.	.	.
8r	.	8r	.	(16c#X/	.	16e`/	.	8r	.	16c#X\	-i-	.	.	.	.	.	.	.	.	.	.
.	.	.	.	16d/JJ)	.	16f#`/JJ	.	.	.	16d\	-li-	.	.	.	.	.	.	.	.	.	.
!	!	!	!	!LO:LB:g=original	!	!	!	!	!	!	!	!	!	!	!	!	!	!	!	!	!
8D\	.	8d\	.	16f#/LL	.	16a`\LL	.	8r	.	16cn\LL	-um	.	.	.	.	.	.	.	.	.	.
.	.	.	.	16a/JJ	.	16cc`\JJ	.	.	.	16A\JJ	.	.	.	.	.	.	.	.	.	.	.
8r	.	8r	.	8f#/	.	8a\	.	16A\LL	e-	16F#\LL	o-	.	.	.	.	.	.	.	.	.	.
.	.	.	.	.	.	.	.	16B\JJ	.	16G\JJ	.	.	.	.	.	.	.	.	.	.	.
!	!	!	!	!	!	!LO:LB:g=original	!	!	!	!	!	!	!	!	!	!	!	!	!	!	!
=43	=43	=43	=43	=43	=43	=43	=43	=43	=43	=43	=43	=43	=43	=43	=43	=43	=43	=43	=43	=43	=43
!	!	!	!	!	!	!	!LO:DY:rj:t=p.	!LO:TX:b:t=P:problem:w tekście x z haczykiem	!	!	!	!	!	!LO:N:vis=00	!	!LO:N:vis=00	!	!LO:N:vis=0	!	!LO:N:vis=0	!
8D\	.	8d\	.	8a/L	.	8cc\L	p	8c\L	-xi-	(8A\	-ſten-	.	.	0r	.	0r	.	1r	.	1r	.
8r	.	8r	.	8f#/	.	8a\	.	8c\J	-li-	8c\)	.	.	.	.	.	.	.	.	.	.	.
!	!	!	!	!	!	!	!	!LO:LB:g=original	!	!	!	!	!	!	!	!	!	!	!	!	!
8D\	.	8d\	.	8a/	.	8cc\	.	8e\	-um	8A\	-de	.	.	.	.	.	.	.	.	.	.
8r	.	8r	.	8f#/J	.	8a\J	.	(16d\LL	o-	8F#\	o-	.	.	.	.	.	.	.	.	.	.
.	.	.	.	.	.	.	.	16c\JJ)	.	.	.	.	.	.	.	.	.	.	.	.	.
!	!	!LO:LB:g=original	!	!	!	!	!	!	!	!	!	!	!	!	!	!	!	!	!	!	!
=44	=44	=44	=44	=44	=44	=44	=44	=44	=44	=44	=44	=44	=44	=44	=44	=44	=44	=44	=44	=44	=44
8G\	.	8B/	.	8r	.	8r	.	(16B\LL	-ſten-	16G\LL	-ſten-	.	.	.	.	.	.	.	.	.	.
.	.	.	.	.	.	.	.	16c\JJ)	.	16A\JJ	.	.	.	.	.	.	.	.	.	.	.
8r	.	8r	.	16g/LL	.	16b\LL	.	4d\	-de	8B\	-de	.	.	.	.	.	.	.	.	.	.
.	.	.	.	16a/JJ	.	16cc\JJ	.	.	.	.	.	.	.	.	.	.	.	.	.	.	.
!	!	!LO:TX:a:t=P:problem:mixed beam	!	!	!	!	!	!	!	!	!	!	!	!	!	!	!	!	!	!	!
8BB/	.	8g\L	.	8b\	.	8dd\	.	.	.	4r	.	.	.	.	.	.	.	.	.	.	.
8r	.	8G/J	.	8d/	.	8b\	.	8G\	no	.	.	.	.	.	.	.	.	.	.	.	.
=45	=45	=45	=45	=45	=45	=45	=45	=45	=45	=45	=45	=45	=45	=45	=45	=45	=45	=45	=45	=45	=45
!	!	!	!	!	!	!	!	!	!	!	!	!LO:N:vis=0	!	!	!	!	!	!	!	!	!
8C/	.	8c'\	.	8e/L	.	8cc\L	.	(16E\LL	bis	4r	.	1r	.	.	.	.	.	2r	.	2r	.
.	.	.	.	.	.	.	.	16G#X\JJ)	.	.	.	.	.	.	.	.	.	.	.	.	.
8r	.	8r	.	8c/	.	8a\	.	(16A\LL	oſ-	.	.	.	.	.	.	.	.	.	.	.	.
.	.	.	.	.	.	.	.	16c\JJ)	.	.	.	.	.	.	.	.	.	.	.	.	.
8D/	.	8d\	.	8g/	.	8b\	.	(8G#\L	-ten-	8B\	o-	.	.	.	.	.	.	.	.	.	.
!	!LO:DY:t=p	!	!	!	!	!	!	!	!	!	!	!	!	!	!	!	!	!	!	!	!
8r	p	8r	.	8f#/J	.	8a\J	.	8F#\J)	.	8A\	-ſten-	.	.	.	.	.	.	.	.	.	.
=46	=46	=46	=46	=46	=46	=46	=46	=46	=46	=46	=46	=46	=46	=46	=46	=46	=46	=46	=46	=46	=46
!LO:TX:b:i:t=colarčo.	!	!	!	!	!	!	!	!	!	!	!	!	!	!	!	!	!	!	!	!	!
2GG/	.	8d\	.	8B/	.	8g/	.	8G\	-de	8B\	-de	.	.	.	.	.	.	16b\LL	.	16gg\LL	.
.	.	.	.	.	.	.	.	.	.	.	.	.	.	.	.	.	.	16dd\	.	16ddd\	.
!	!	!	!	!	!	!LO:TX:b:i:t=čolarčo	!	!	!	!	!	!	!	!	!	!	!	!	!	!	!
.	.	8r	.	8r	.	8r	.	8r	.	8r	.	.	.	.	.	.	.	16ee\	.	16ccc#X\	.
.	.	.	.	.	.	.	.	.	.	.	.	.	.	.	.	.	.	16ff#\JJ	.	16ddd\JJ	.
!	!	!	!	!	!	!	!	!	!	!	!	!	!	!	!	!	!	!LO:LB:g=original	!	!	!
!	!	!LO:TX:b:i:t=colar.	!	!LO:TX:b:i:t=čolar&colon;	!	!	!	!	!	!	!	!	!	!	!	!	!	!	!	!	!
.	.	4r	.	4r	.	4r	.	8.r	.	8.r	.	.	.	.	.	.	.	8gg\L	.	16bb\LL	.
.	.	.	.	.	.	.	.	.	.	.	.	.	.	.	.	.	.	.	.	16gg\J	.
.	.	.	.	.	.	.	.	.	.	.	.	.	.	.	.	.	.	8b\J	.	8dd\J	.
.	.	.	.	.	.	.	.	16B\	no-	16G\	no-	.	.	.	.	.	.	.	.	.	.
!	!	!	!	!	!	!	!	!LO:LB:g=original	!	!LO:LB:g=original	!	!	!	!	!	!	!	!	!	!	!
=47	=47	=47	=47	=47	=47	=47	=47	=47	=47	=47	=47	=47	=47	=47	=47	=47	=47	=47	=47	=47	=47
!	!	!	!	!	!	!	!	!	!	!	!	!LO:N:vis=0	!	!LO:N:vis=0	!	!LO:N:vis=0	!	!LO:TX:a:t=1.	!	!LO:TX:a:t=1	!
8r	.	8d\	.	8d 8A/	.	8cc 8a\	.	16d\LL	-bis	16B\LL	-bis	1r	.	1r	.	1r	.	2r	.	2r	.
.	.	.	.	.	.	.	.	16c\JJ	.	16A\JJ	.	.	.	.	.	.	.	.	.	.	.
8D\	.	8r	.	8r	.	8r	.	16r	.	16r	.	.	.	.	.	.	.	.	.	.	.
.	.	.	.	.	.	.	.	16A\	Je-	16F#\	no-	.	.	.	.	.	.	.	.	.	.
8r	.	8d\	.	8d 8B/	.	8b 8g\	.	16c\LL	-sum	16A\LL	-bis	.	.	.	.	.	.	.	.	.	.
.	.	.	.	.	.	.	.	16B\JJ	.	16G\JJ	.	.	.	.	.	.	.	.	.	.	.
8G\	.	8r	.	8r	.	8r	.	16r	.	16r	.	.	.	.	.	.	.	.	.	.	.
.	.	.	.	.	.	.	.	16G\	no-	16r	.	.	.	.	.	.	.	.	.	.	.
=48	=48	=48	=48	=48	=48	=48	=48	=48	=48	=48	=48	=48	=48	=48	=48	=48	=48	=48	=48	=48	=48
!LO:TX:a:t=P:problem:mixed beam	!	!	!	!	!	!	!	!	!	!	!	!	!	!	!	!	!	!	!	!	!
8C/L	.	8d\L	.	16cc\LL	.	16ee\LL	.	8E\	-bis	2r	.	.	.	.	.	.	.	4r	.	4r	.
.	.	.	.	16cc\	.	16ee\	.	.	.	.	.	.	.	.	.	.	.	.	.	.	.
8c\	.	8d\J	.	16cc\	.	16ee\	.	8A\	o-	.	.	.	.	.	.	.	.	.	.	.	.
.	.	.	.	16cc\JJ	.	16ee\JJ	.	.	.	.	.	.	.	.	.	.	.	.	.	.	.
8d\	.	8d\	.	8b/L	.	8dd\L	.	(8G\L	-ſten-	.	.	.	.	.	.	.	.	8gg\L	.	8bb\L	.
8D/J	.	8r	.	8a/J	.	8cc\J	.	8F#X\J)	.	.	.	.	.	.	.	.	.	8aa\J	.	8ccc\J	.
!LO:LB:g=original	!	!	!	!	!	!	!	!	!	!	!	!	!	!	!	!	!	!	!	!	!
=49	=49	=49	=49	=49	=49	=49	=49	=49	=49	=49	=49	=49	=49	=49	=49	=49	=49	=49	=49	=49	=49
!	!	!	!	!	!	!LO:TX:a:i:t=Tutti	!	!	!	!LO:TX:a:i:t=Tutti	!	!	!	!	!	!	!	!	!	!	!
8G\	.	8d\	.	8g/	.	16b\LL	.	8G\	-de.	4r	.	4r	.	2r	.	2r	.	8gg\	.	8bb\	.
.	.	.	.	.	.	16dd\	.	.	.	.	.	.	.	.	.	.	.	.	.	.	.
!	!	!	!	!	!	!	!	!	!	!	!	!LO:TX:a:i:t=Tutti	!	!	!	!	!	!	!	!	!
8r	.	8r	.	8r	.	16ee\	.	8r	.	.	.	.	.	.	.	.	.	4r	.	8r	.
!	!	!LO:TX:a:i:t=Tutti	!	!	!	!	!	!	!	!	!	!	!	!	!	!	!	!	!	!	!
.	.	.	.	.	.	16ff#\JJ	.	.	.	.	.	.	.	.	.	.	.	.	.	.	.
!	!	!	!	!LO:LB:g=original	!	!	!	!	!	!	!	!	!	!	!	!	!	!	!	!	!
4r	.	4r	.	8r	.	16gg\LL	.	8r	.	8r	.	8r	.	.	.	.	.	.	.	4r	.
.	.	.	.	.	.	16aa\	.	.	.	.	.	.	.	.	.	.	.	.	.	.	.
!	!	!	!	!LO:TX:a:i:t=Tutti	!	!	!	!LO:N:vis=8.	!	!	!	!	!	!	!	!	!	!	!	!	!
!	!	!	!	!	!	!	!	!LO:TX:a:i:t=Tutti	!	!	!	!	!	!	!	!	!	!	!LO:DY:a:t=fo.	!	!
.	.	.	.	8dd\	f	16bb\	.	8D\	O!	8d\	O!	8d\	O!	.	.	.	.	8dd\	f	.	.
.	.	.	.	.	.	16ddd\JJ	.	.	.	.	.	.	.	.	.	.	.	.	.	.	.
!	!	!LO:LB:g=original	!	!	!	!LO:LB:g=original	!	!	!	!	!	!LO:LB:g=original	!	!LO:LB:g=original	!	!	!	!	!	!	!
=50	=50	=50	=50	=50	=50	=50	=50	=50	=50	=50	=50	=50	=50	=50	=50	=50	=50	=50	=50	=50	=50
*	*	*	*	*tremolo	*	*tremolo	*	*	*	*	*	*	*	*	*	*	*	*	*	*	*
!LO:TX:a:t=P:problem:mixed beam	!	!	!	!	!	!	!	!	!	!	!	!	!	!	!	!	!	!	!	!	!
!LO:TX:a:i:t=Tutti	!	!	!	!	!	!	!	!	!	!	!	!	!	!	!LO:DY:rj:t=f.	!	!LO:DY:rj	!	!	!	!
8G\L	.	8G/L	.	(16g/LL	.	(16b\LL	.	8G\	cle-	8B\	čle-	8g\	čle-	8G/	f	8g\	f	8bb\L	.	8ggg\L	.
.	.	.	.	16b/	.	16dd\	.	.	.	.	.	.	.	.	.	.	.	.	.	.	.
8GG/	.	8B/	.	16g/	.	16b\	.	8G\	-mens	8B\	-mens	8g\	-menš	8r	.	8r	.	8bb\J	.	8ggg\J	.
.	.	.	.	16b/	.	16dd\	.	.	.	.	.	.	.	.	.	.	.	.	.	.	.
8BB/	.	8d/	.	16g/	.	16b\	.	8G\	čle-	(16B\LL	cle-	(16g\LL	čle-	8G/	.	8g\	.	16bb\LL	.	16ggg\LL	.
.	.	.	.	16b/	.	16dd\	.	.	.	16A\JJ)	.	16f#\JJ)	.	.	.	.	.	16ddd\	.	16fff#\	.
!	!	!	!	!	!	!	!	!LO:LB:g=original	!	!	!	!	!	!	!	!	!	!	!	!	!
8GG/J	.	8d/J	.	16g/	.	16b\	.	16B`\LL	-mens	16c\	-mens	16e\	-menš	8r	.	8r	.	16ccc\	.	16eee\	.
.	.	.	.	16b/JJ)	.	16dd\JJ)	.	16G`\JJ	o	16B\	o	16d\	o	.	.	.	.	16bb\JJ	.	16ddd\JJ	.
!	!	!	!	!	!	!	!	!	!	!	!	!	!	!	!	!LO:LB:g=original	!	!	!	!	!
=51	=51	=51	=51	=51	=51	=51	=51	=51	=51	=51	=51	=51	=51	=51	=51	=51	=51	=51	=51	=51	=51
!	!	!	!	!LO:TX:a:t=P:problem:mixed beam	!	!	!	!	!	!	!	!	!	!	!	!	!	!	!	!	!
.	.	.	.	.	.	.	.	.	.	.	.	8qqd/	.	.	.	.	.	8qqbb/	.	8qqddd/	.
8D\L	.	8d\L	.	8a\L	.	16cc\LL	.	8D\	pi-	8A\	pi-	8c\	pi-	8r	.	8r	.	8aa\L	.	8ccc\L	.
.	.	.	.	.	.	16dd\	.	.	.	.	.	.	.	.	.	.	.	.	.	.	.
8dJ 8D\	.	8d\J	.	8cc\	.	16ff#\	.	8D\	-a	8A\	-a,	8c\	-a,	8d/L	.	8a\L	.	8aa\J	.	8ccc\J	.
.	.	.	.	.	.	16aa\JJ	.	.	.	.	.	.	.	.	.	.	.	.	.	.	.
4r	.	8d\	.	8f#/	.	32ccc\LLL	.	8r	.	8r	.	8r	.	8d/J	.	8a\J	.	8r	.	8r	.
.	.	.	.	.	.	32aa\	.	.	.	.	.	.	.	.	.	.	.	.	.	.	.
.	.	.	.	.	.	32ff#\	.	.	.	.	.	.	.	.	.	.	.	.	.	.	.
.	.	.	.	.	.	32dd\JJJ	.	.	.	.	.	.	.	.	.	.	.	.	.	.	.
.	.	8r	.	8a/J	.	8cc\	.	8F#\	o	8A\	o	8c\	o	8r	.	8r	.	8aa\	.	8ccc\	.
!	!	!	!	!	!	!	!	!	!	!LO:LB:g=original	!	!	!	!	!	!	!	!	!	!LO:LB:g=original	!
=52	=52	=52	=52	=52	=52	=52	=52	=52	=52	=52	=52	=52	=52	=52	=52	=52	=52	=52	=52	=52	=52
*	*	*tremolo	*	*	*	*	*	*	*	*	*	*	*	*	*	*	*	*	*	*	*
8D\L	.	8d\L	.	(16a/LL	.	(16cc\LL	.	8F#\	dul-	8c\	dul-	8a\	dul-	8d/	.	8a\	.	8aa\L	.	8ccc\L	.
.	.	.	.	16f#/	.	16dd\	.	.	.	.	.	.	.	.	.	.	.	.	.	.	.
8D\	.	8d\	.	16a/	.	16cc\	.	8F#\	-čis	8c\	-cis	8a\	-čis	8r	.	8r	.	8aa\J	.	8ccc\J	.
.	.	.	.	16f#/	.	16dd\	.	.	.	.	.	.	.	.	.	.	.	.	.	.	.
8F#\	.	8d\	.	16a/	.	16cc\	.	8F#\	Vir-	8c\	Vir-	(16a\LL	Vir-	8d/	.	8a\	.	32aa\LLL	.	32ccc\LLL	.
.	.	.	.	.	.	.	.	.	.	.	.	.	.	.	.	.	.	32gg\	.	32bb\	.
.	.	.	.	16f#/	.	16dd\	.	.	.	.	.	16f#\JJ)	.	.	.	.	.	32ff#\	.	32aa\	.
.	.	.	.	.	.	.	.	.	.	.	.	.	.	.	.	.	.	32ee\JJJ	.	32gg\JJJ	.
8D\J	.	8d\J	.	16a/	.	16cc\	.	16D\	-go	16B\	-go	16d\	-go	8r	.	8r	.	32dd\LLL	.	32ff#\LLL	.
.	.	.	.	.	.	.	.	.	.	.	.	.	.	.	.	.	.	32cc\	.	32ee\	.
.	.	.	.	16f#/JJ)	.	16dd\JJ)	.	16F#\	Ma-	16A\	Ma-	16c\	Ma-	.	.	.	.	32b\	.	32dd\	.
.	.	.	.	.	.	.	.	.	.	.	.	.	.	.	.	.	.	32a\JJJ	.	32cc\JJJ	.
*	*	*Xtremolo	*	*Xtremolo	*	*Xtremolo	*	*	*	*	*	*	*	*	*	*	*	*	*	*	*
!	!	!	!	!	!	!	!	!	!	!	!	!	!	!	!	!	!	!LO:LB:g=original	!	!	!
=53	=53	=53	=53	=53	=53	=53	=53	=53	=53	=53	=53	=53	=53	=53	=53	=53	=53	=53	=53	=53	=53
!LO:TX:a:t=P:problem:mixed beam	!	!	!	!	!	!	!	!	!	!	!	!	!	!	!	!	!	!	!	!	!
.	.	.	.	.	.	.	.	.	.	.	.	8qqd/	.	.	.	.	.	.	.	.	.
8G\L	.	8d\L	.	8g\L	.	32b\LLL	.	8G\	-ri-	8A\	-ri-	8c\	-ri-	8r	.	8r	.	8ff#\L	.	8aa\L	.
.	.	.	.	.	.	32g\	.	.	.	.	.	.	.	.	.	.	.	.	.	.	.
.	.	.	.	.	.	32a\	.	.	.	.	.	.	.	.	.	.	.	.	.	.	.
.	.	.	.	.	.	32b\JJJ	.	.	.	.	.	.	.	.	.	.	.	.	.	.	.
8GG/	.	8d\	.	8b 8g\	.	32cc\LLL	.	8GG/	-a	8G\	-a.	8B\	-a,	8B/L	.	8g\L	.	8gg\J	.	8bb\J	.
.	.	.	.	.	.	32dd\	.	.	.	.	.	.	.	.	.	.	.	.	.	.	.
.	.	.	.	.	.	32ee\	.	.	.	.	.	.	.	.	.	.	.	.	.	.	.
.	.	.	.	.	.	32ff#\JJJ	.	.	.	.	.	.	.	.	.	.	.	.	.	.	.
8G\J	.	8d\J	.	8bJ 8g\	.	8gg\L	.	8r	.	8r	.	8r	.	8B/J	.	8g\J	.	4r	.	4r	.
8r	.	8r	.	8d/	.	8dd\J	.	8G\	O-	8B\	O-	8d\	O-	8r	.	8r	.	.	.	.	.
!	!	!	!	!	!	!	!	!LO:LB:g=original	!	!	!	!	!	!	!	!	!	!	!	!	!
=54	=54	=54	=54	=54	=54	=54	=54	=54	=54	=54	=54	=54	=54	=54	=54	=54	=54	=54	=54	=54	=54
4GG/	.	8G/L	.	8b\L	.	8gg\L	.	8G\	-ra	8B\	-ra	8g\	-ra	8G/	.	8g\	.	8gg\L	.	8bb\L	.
.	.	8G/J	.	8b\J	.	8gg\J	.	8G\	pro	8B\	pro	8g\	pro	8r	.	8r	.	8gg\	.	8bb\J	.
!	!	!	!	!LO:TX:a:t=P:problem:mixed beam	!	!	!	!	!	!	!	!	!	!	!	!	!	!	!	!	!
4AA/	.	16A/LL	.	16a/LL	.	32gg\LLL	.	8A\	no-	8c#X\	no-	8g\	no-	8a\	.	8a\	.	8gg\	.	8ccc#X\L	.
.	.	.	.	.	.	32ee\	.	.	.	.	.	.	.	.	.	.	.	.	.	.	.
.	.	16A/	.	16g/	.	32cc#X\	.	.	.	.	.	.	.	.	.	.	.	.	.	.	.
.	.	.	.	.	.	32a\JJJ	.	.	.	.	.	.	.	.	.	.	.	.	.	.	.
.	.	16c#X/	.	16ee'\	.	16gg\LL	.	8AA/	-bis	8c#\	-bis	8g\	-biš	8r	.	8r	.	8aa\J	.	8ccc#\J	.
.	.	16A/JJ	.	16ee'\JJ	.	16gg\JJ	.	.	.	.	.	.	.	.	.	.	.	.	.	.	.
!	!	!	!	!	!	!	!	!	!	!	!	!LO:LB:g=original	!	!	!	!	!	!	!	!	!
=55	=55	=55	=55	=55	=55	=55	=55	=55	=55	=55	=55	=55	=55	=55	=55	=55	=55	=55	=55	=55	=55
*	*	*tremolo	*	*tremolo	*	*	*	*	*	*	*	*	*	*	*	*	*	*	*	*	*
!	!	!	!	!LO:TX:a:t=P:problem:cztery kreseczki nad nutą	!	!	!	!	!	!	!	!	!	!	!	!	!	!	!	!	!
8D\L	.	16a\LL	.	16dd`\LL	.	16ff#\LL	.	8D\	San-	8d\	San-	8f#\	San-	8d/	.	8a\	.	8ff#\L	.	8ddd\L	.
.	.	16a\	.	16dd`\	.	16ff#\	.	.	.	.	.	.	.	.	.	.	.	.	.	.	.
8D\	.	16a\	.	16dd`\	.	16ff#\	.	8D\	-čta	8d\	-čta	8f#\	-čta	8r	.	8r	.	8ff#\	.	8ddd\J	.
.	.	16a\JJ	.	16dd`\JJ	.	16ff#\JJ	.	.	.	.	.	.	.	.	.	.	.	.	.	.	.
!	!	!	!	!	!	!LO:LB:g=original	!	!	!	!	!	!	!	!	!	!	!	!	!	!	!
!	!	!	!	!LO:TX:b:t=P:problem:cztery kreseczki pod nutą	!	!	!	!	!	!	!	!	!	!	!	!	!	!	!	!	!
8F#\	.	16d\LL	.	16aLL 16f#`/	.	32dd\LLL	.	8F#\	De-	8A\	De-	8d\	De-	8d/	.	8a\	.	8aa\	.	8cccn\L	.
.	.	.	.	.	.	32ccc\	.	.	.	.	.	.	.	.	.	.	.	.	.	.	.
.	.	16d\	.	16a 16f#`/	.	32aa\	.	.	.	.	.	.	.	.	.	.	.	.	.	.	.
.	.	.	.	.	.	32ff#\JJJ	.	.	.	.	.	.	.	.	.	.	.	.	.	.	.
8D\J	.	16d\	.	16a 16f#`/	.	32dd\LLL	.	8D\	-i	8A\	-i	8cn\	-i	8r	.	8r	.	8ff#\J	.	8aa\J	.
.	.	.	.	.	.	32ff#\	.	.	.	.	.	.	.	.	.	.	.	.	.	.	.
.	.	16d\JJ	.	16aJJ 16f#`/	.	32aa\	.	.	.	.	.	.	.	.	.	.	.	.	.	.	.
.	.	.	.	.	.	32ccc\JJJ	.	.	.	.	.	.	.	.	.	.	.	.	.	.	.
*	*	*Xtremolo	*	*Xtremolo	*	*	*	*	*	*	*	*	*	*	*	*	*	*	*	*	*
!	!	!	!	!	!	!	!	!	!	!LO:LB:g=original	!	!	!	!LO:LB:g=original	!	!LO:LB:g=original	!	!	!	!	!
=56	=56	=56	=56	=56	=56	=56	=56	=56	=56	=56	=56	=56	=56	=56	=56	=56	=56	=56	=56	=56	=56
!LO:TX:a:t=P:problem:mixed beam	!	!	!	!	!	!	!	!	!	!	!	!	!	!	!	!	!	!	!	!	!
8G\L	.	16d\LL	.	16bLL 16g/	.	16bb\LL	.	8G\	Ge-	8G\	Ge-	(16B\LL	Ge-	8B/	.	8g\	.	8gg\L	.	8bb\L	.
.	.	16d\	.	16b 16g/	.	16gg\	.	.	.	.	.	16g\JJ)	.	.	.	.	.	.	.	.	.
8C/J	.	16c\	.	16a 16e/	.	16ee\	.	8C/	-ni-	16c\	-ni-	16e\	-ni-	8r	.	8r	.	8aa\	.	8ccc\	.
!	!	!	!	!	!	!	!	!	!	!LO:TX:b:t=P:problem:w tekście x z haczykiem	!	!LO:TX:b:t=P:problem:w tekście x z haczykiem	!	!	!	!	!	!	!	!	!
.	.	16c\JJ	.	16aJJ 16e/	.	16ccc\JJ	.	.	.	16A\	-trix	16c\	-trix	.	.	.	.	.	.	.	.
*	*	*tremolo	*	*	*	*	*	*	*	*	*	*	*	*	*	*	*	*	*	*	*
!	!	!	!	!LO:LB:g=original	!	!	!	!	!	!	!	!	!	!	!	!	!	!	!	!	!
!	!	!LO:TX:a:t=P:problem:osiem kropek nad nutą	!	!	!	!	!	!	!	!	!	!	!	!LO:TX:a:t=P:problem:mixed beam	!	!	!	!	!	!	!
!	!	!	!	!	!	!	!	!LO:TX:b:t=P:problem:w tekście x z haczykiem	!	!	!	!	!	!LO:TX:a:t= 	!	!	!	!	!	!	!
4D/	.	32d'\LLL	.	32bLLL 32d/	.	32gg\LLL	.	8D\	-trix	(8G\	Vir-	8B\	Vir-	8g\L	.	8b\L	.	8gg\	.	8bb\	.
.	.	32d'\	.	32b 32d/	.	32gg\	.	.	.	.	.	.	.	.	.	.	.	.	.	.	.
.	.	32d'\	.	32b 32d/	.	32gg\	.	.	.	.	.	.	.	.	.	.	.	.	.	.	.
.	.	32d'\	.	32bJJJ 32d/	.	32gg\JJJ	.	.	.	.	.	.	.	.	.	.	.	.	.	.	.
.	.	32d'\	.	32aLLL 32d/	.	32ff#\LLL	.	8D\	Vir-	8F#\)	.	8A\	-go	8d/J	.	8a\J	.	8ff#\J	.	8aa\J	.
.	.	32d'\	.	32a 32d/	.	32ff#\	.	.	.	.	.	.	.	.	.	.	.	.	.	.	.
.	.	32d'\	.	32a 32d/	.	32ff#\	.	.	.	.	.	.	.	.	.	.	.	.	.	.	.
.	.	32d'\JJJ	.	32aJJJ 32d/	.	32ff#\JJJ	.	.	.	.	.	.	.	.	.	.	.	.	.	.	.
!LO:LB:g=original	!	!LO:LB:g=original	!	!	!	!	!	!	!	!	!	!	!	!	!	!	!	!	!	!	!
=57	=57	=57	=57	=57	=57	=57	=57	=57	=57	=57	=57	=57	=57	=57	=57	=57	=57	=57	=57	=57	=57
!	!	!	!	!	!	!	!	!	!	!	!	!LO:TX:a:i:t=Solo	!	!	!	!	!	!	!	!	!
8G\	.	8d\	.	8b 8d/	.	8gg\	.	8G\	-go.	8G\	-go.	16r	.	8B/	.	8g\	.	8gg\	.	8bb\	.
.	.	.	.	.	.	.	.	.	.	.	.	16G`\LL	O!	.	.	.	.	.	.	.	.
8r	.	8r	.	8r	.	8r	.	8r	.	8r	.	16A`\	.	8r	.	8r	.	8r	.	8r	.
.	.	.	.	.	.	.	.	.	.	.	.	16B`\JJ	.	.	.	.	.	.	.	.	.
4r	.	4r	.	4r	.	4r	.	4r	.	4r	.	16c'\LL	.	4r	.	4r	.	4r	.	4r	.
.	.	.	.	.	.	.	.	.	.	.	.	16d'\	.	.	.	.	.	.	.	.	.
.	.	.	.	.	.	.	.	.	.	.	.	16e'\	.	.	.	.	.	.	.	.	.
.	.	.	.	.	.	.	.	.	.	.	.	16f#'\JJ	.	.	.	.	.	.	.	.	.
!	!	!	!	!	!	!	!	!LO:LB:g=original	!	!	!	!	!	!	!	!	!	!	!	!LO:LB:g=original	!
=58	=58	=58	=58	=58	=58	=58	=58	=58	=58	=58	=58	=58	=58	=58	=58	=58	=58	=58	=58	=58	=58
*	*	*	*	*	*	*	*	*	*	*	*	*2\right	*	*	*	*	*	*	*	*	*
!LO:TX:a:t=6.	!	!LO:TX:a:t=6.	!	!LO:TX:a:t=6.	!	!LO:TX:a:t=6.	!	!LO:TX:a:t=1.	!	!LO:TX:a:i:t=Solo.	!	!	!	!LO:TX:a:t=6.	!	!LO:TX:a:t=6.	!	!LO:TX:a:t=6.	!	!LO:TX:a:t=6.	!
!LO:N:vis=00	!	!LO:N:vis=00	!	!LO:N:vis=00	!	!LO:N:vis=00	!	!	!	!	!	!	!	!LO:N:vis=00	!	!LO:N:vis=00	!	!LO:N:vis=00	!	!LO:N:vis=00	!
0r	.	0r	.	0r	.	0r	.	2r	.	16r	.	[2g\	čle-	0r	.	0r	.	0r	.	0r	.
.	.	.	.	.	.	.	.	.	.	16G\LL	O!	.	.	.	.	.	.	.	.	.	.
.	.	.	.	.	.	.	.	.	.	16A\	.	.	.	.	.	.	.	.	.	.	.
.	.	.	.	.	.	.	.	.	.	16B\JJ	.	.	.	.	.	.	.	.	.	.	.
.	.	.	.	.	.	.	.	.	.	(16c\LL	pi-	.	.	.	.	.	.	.	.	.	.
.	.	.	.	.	.	.	.	.	.	16A\)	.	.	.	.	.	.	.	.	.	.	.
.	.	.	.	.	.	.	.	.	.	16d'\	.	.	.	.	.	.	.	.	.	.	.
.	.	.	.	.	.	.	.	.	.	16c'\JJ	.	.	.	.	.	.	.	.	.	.	.
=59	=59	=59	=59	=59	=59	=59	=59	=59	=59	=59	=59	=59	=59	=59	=59	=59	=59	=59	=59	=59	=59
*	*	*	*	*	*	*	*	*	*	*2\right	*	*	*	*	*	*	*	*	*	*	*
!	!	!	!	!	!	!	!	!LO:TX:a:i:t=Šolo.	!	!	!	!	!	!	!	!	!	!	!	!	!
.	.	.	.	.	.	.	.	16r	.	[2B\	-a	2gT\_	-menš	.	.	.	.	.	.	.	.
.	.	.	.	.	.	.	.	(16G\LL	O	.	.	.	.	.	.	.	.	.	.	.	.
.	.	.	.	.	.	.	.	16A\	.	.	.	.	.	.	.	.	.	.	.	.	.
.	.	.	.	.	.	.	.	16B\JJ)	.	.	.	.	.	.	.	.	.	.	.	.	.
.	.	.	.	.	.	.	.	(16c\LL	dul-	.	.	.	.	.	.	.	.	.	.	.	.
.	.	.	.	.	.	.	.	16A\)	.	.	.	.	.	.	.	.	.	.	.	.	.
.	.	.	.	.	.	.	.	(16d\	.	.	.	.	.	.	.	.	.	.	.	.	.
.	.	.	.	.	.	.	.	16c\JJ)	.	.	.	.	.	.	.	.	.	.	.	.	.
=60	=60	=60	=60	=60	=60	=60	=60	=60	=60	=60	=60	=60	=60	=60	=60	=60	=60	=60	=60	=60	=60
.	.	.	.	.	.	.	.	8B\	-čiš	4B\]	Vir-	4g\_	Vir-	.	.	.	.	.	.	.	.
.	.	.	.	.	.	.	.	8G\	Vir-	.	.	.	.	.	.	.	.	.	.	.	.
.	.	.	.	.	.	.	.	4c#X\	-go	4A\	-go	16g'\LL]	.	.	.	.	.	.	.	.	.
.	.	.	.	.	.	.	.	.	.	.	.	16e'\	.	.	.	.	.	.	.	.	.
.	.	.	.	.	.	.	.	.	.	.	.	(16d\	-go	.	.	.	.	.	.	.	.
.	.	.	.	.	.	.	.	.	.	.	.	16c#X\JJ)	.	.	.	.	.	.	.	.	.
!	!	!	!	!	!	!	!	!	!	!	!	!LO:LB:g=original	!	!	!	!	!	!	!	!	!
=61	=61	=61	=61	=61	=61	=61	=61	=61	=61	=61	=61	=61	=61	=61	=61	=61	=61	=61	=61	=61	=61
*	*	*	*	*	*	*	*	*2\right	*	*	*	*	*	*	*	*	*	*	*	*	*
!	!	!	!	!	!	!	!	!	!	!LO:TX:a:t=½	!	!LO:TX:b:t=P:problem:niepewne podłożenie sylab	!	!	!	!	!	!	!	!	!
!	!	!	!	!	!	!	!	!	!	!LO:N:vis=2	!	!	!	!	!	!	!	!	!	!	!
.	.	.	.	.	.	.	.	[2D\	Ma-	4r	.	8D/	Vir-	.	.	.	.	.	.	.	.
.	.	.	.	.	.	.	.	.	.	.	.	16F#/	.	.	.	.	.	.	.	.	.
.	.	.	.	.	.	.	.	.	.	.	.	16r	.	.	.	.	.	.	.	.	.
.	.	.	.	.	.	.	.	.	.	8D\	Vir	8F#/	-go	.	.	.	.	.	.	.	.
.	.	.	.	.	.	.	.	.	.	16F#\	.	16A/	.	.	.	.	.	.	.	.	.
.	.	.	.	.	.	.	.	.	.	16r	.	16r	.	.	.	.	.	.	.	.	.
=62	=62	=62	=62	=62	=62	=62	=62	=62	=62	=62	=62	=62	=62	=62	=62	=62	=62	=62	=62	=62	=62
!	!	!	!	!	!	!	!	!LO:TX:a:t=P:problem:jednocześnie 1D, 2D/ i 2D\, nad nutą łuk	!	!LO:TX:b:t=P:problem:widać ślad innego podłożenia tekstu	!	!	!	!	!	!	!	!	!	!	!
!LO:N:vis=0	!	!LO:N:vis=0	!	!LO:N:vis=0	!	!LO:N:vis=0	!	!	!	!	!	!	!	!LO:N:vis=0	!	!LO:N:vis=0	!	!LO:N:vis=0	!	!LO:N:vis=0	!
1r	.	1r	.	1r	.	1r	.	2D\_	.	8F#\	Vir-	8A\	Vir-	1r	.	1r	.	1r	.	1r	.
.	.	.	.	.	.	.	.	.	.	16A\	.	16d\	-go	.	.	.	.	.	.	.	.
.	.	.	.	.	.	.	.	.	.	16r	.	16r	.	.	.	.	.	.	.	.	.
!	!	!	!	!	!	!	!	!	!	!LO:LB:g=original	!	!	!	!	!	!	!	!	!	!	!
.	.	.	.	.	.	.	.	.	.	8A\	-go	8d\	.	.	.	.	.	.	.	.	.
.	.	.	.	.	.	.	.	.	.	16c\	Ma-	16f#\	.	.	.	.	.	.	.	.	.
.	.	.	.	.	.	.	.	.	.	16r	.	16r	.	.	.	.	.	.	.	.	.
=63	=63	=63	=63	=63	=63	=63	=63	=63	=63	=63	=63	=63	=63	=63	=63	=63	=63	=63	=63	=63	=63
.	.	.	.	.	.	.	.	2D\_	-ri-	2A\	-ri-	4d\	Ma-	.	.	.	.	.	.	.	.
.	.	.	.	.	.	.	.	.	.	.	.	8f#\	-ri-	.	.	.	.	.	.	.	.
.	.	.	.	.	.	.	.	.	.	.	.	8a\	.	.	.	.	.	.	.	.	.
=64	=64	=64	=64	=64	=64	=64	=64	=64	=64	=64	=64	=64	=64	=64	=64	=64	=64	=64	=64	=64	=64
2r;	.	2r;	.	2r;	.	2r;	.	2D;\]	-a.	2A;\	-a,	2f#;\	-a.	2r;	.	2r;	.	2r;	.	2r;	.
!	!	!	!	!	!	!	!	!LO:LB:g=original	!	!	!	!	!	!	!	!	!	!	!	!	!
=65	=65	=65	=65	=65	=65	=65	=65	=65	=65	=65	=65	=65	=65	=65	=65	=65	=65	=65	=65	=65	=65
!LO:TX:a:t=3.	!	!LO:TX:a:t=3.	!	!LO:TX:a:t=3.	!	!LO:TX:a:t=3.	!	!LO:TX:a:t=1.	!	!	!	!	!	!LO:TX:a:t=3.	!	!LO:TX:a:t=3.	!	!LO:TX:a:t=3.	!	!LO:TX:a:t=3.	!
!LO:N:vis=0	!	!LO:N:vis=0	!	!LO:N:vis=0	!	!LO:N:vis=0	!	!	!	!	!	!	!	!LO:N:vis=0	!	!LO:N:vis=0	!	!LO:N:vis=0	!	!LO:N:vis=0	!
1r	.	1r	.	1r	.	1r	.	2r	.	16B\LL	o-	(16g\LL	.	1r	.	1r	.	1r	.	1r	.
.	.	.	.	.	.	.	.	.	.	16d\	.	16f#\)	.	.	.	.	.	.	.	.	.
.	.	.	.	.	.	.	.	.	.	16c\	.	(16e\	O-	.	.	.	.	.	.	.	.
.	.	.	.	.	.	.	.	.	.	16B\JJ	.	16d#X\JJ)	.	.	.	.	.	.	.	.	.
.	.	.	.	.	.	.	.	.	.	16c\LL	-ra	(16e\LL	-ra	.	.	.	.	.	.	.	.
.	.	.	.	.	.	.	.	.	.	16E\	.	16c\)	.	.	.	.	.	.	.	.	.
.	.	.	.	.	.	.	.	.	.	16D\	pro	(16B\	pro	.	.	.	.	.	.	.	.
.	.	.	.	.	.	.	.	.	.	16C\JJ	.	16A\JJ)	.	.	.	.	.	.	.	.	.
=66	=66	=66	=66	=66	=66	=66	=66	=66	=66	=66	=66	=66	=66	=66	=66	=66	=66	=66	=66	=66	=66
.	.	.	.	.	.	.	.	16r	.	2G\	nobis	4B\	no-	.	.	.	.	.	.	.	.
.	.	.	.	.	.	.	.	16D\	O-	.	.	.	.	.	.	.	.	.	.	.	.
.	.	.	.	.	.	.	.	16E\	-ra	.	.	.	.	.	.	.	.	.	.	.	.
.	.	.	.	.	.	.	.	16F#\	pro	.	.	.	.	.	.	.	.	.	.	.	.
.	.	.	.	.	.	.	.	16G\LL	no-	.	.	8B\	-bis	.	.	.	.	.	.	.	.
.	.	.	.	.	.	.	.	16A\JJ	.	.	.	.	.	.	.	.	.	.	.	.	.
.	.	.	.	.	.	.	.	16B\	-biš	.	.	8B\	Ma-	.	.	.	.	.	.	.	.
.	.	.	.	.	.	.	.	16G\	Ma-	.	.	.	.	.	.	.	.	.	.	.	.
!	!	!	!	!	!	!	!	!	!	!	!	!LO:LB:g=original	!	!	!	!	!	!	!	!	!
=67	=67	=67	=67	=67	=67	=67	=67	=67	=67	=67	=67	=67	=67	=67	=67	=67	=67	=67	=67	=67	=67
2r	.	2r	.	2r	.	2r	.	2D\	-ri-	4.F#\	Ma-	2A\	-ri-	2r	.	2r	.	2r	.	2r	.
!	!	!	!	!	!LO:DY:t=ffo&colon;	!	!	!	!	!	!	!	!	!	!	!	!	!	!	!	!
.	.	.	.	.	ff	.	.	.	.	8F#\	-ri-	.	.	.	.	.	.	.	.	.	.
=68	=68	=68	=68	=68	=68	=68	=68	=68	=68	=68	=68	=68	=68	=68	=68	=68	=68	=68	=68	=68	=68
*	*	*	*	*tremolo	*	*	*	*	*	*	*	*	*	*	*	*	*	*	*	*	*
!LO:TX:a:t=P:problem:tt.69 i 70 spięte łukiem z adnotacją "2 maſl." (nieczytelne)	!	!	!	!	!	!	!	!	!	!	!	!	!	!	!	!	!	!	!	!	!
!	!LO:DY:rj:t=ff	!	!	!	!	!	!LO:DY:rj	!	!	!	!	!	!	!	!LO:DY:rj	!	!LO:DY:rj	!	!	!	!LO:DY:a:t=f
8G 8GG\	ff	(16G/LL	.	(16B/LL	.	16g\LL	f	4G\	-a.	4G\	-a.	4G/	-a.	8G/	f	8g/	f	8b\	.	8gg\	f
.	.	16B/	.	16d/	.	32b\L	.	.	.	.	.	.	.	.	.	.	.	.	.	.	.
.	.	.	.	.	.	32cc\JJJ	.	.	.	.	.	.	.	.	.	.	.	.	.	.	.
!	!	!	!	!	!	!LO:LB:g=original	!	!	!	!	!	!	!	!	!	!	!	!	!	!	!
8r	.	16G/	.	16B/	.	16dd\LL	.	.	.	.	.	.	.	8r	.	8r	.	8r	.	8r	.
.	.	16B/	.	16d/	.	16dd\JJ	.	.	.	.	.	.	.	.	.	.	.	.	.	.	.
8G 8GG\	.	16G/	.	16B/	.	16dd\LL	.	4r	.	4r	.	4r	.	8G/	.	8g/	.	8gg\	.	8bb\	.
.	.	16B/	.	16d/	.	32gg\L	.	.	.	.	.	.	.	.	.	.	.	.	.	.	.
.	.	.	.	.	.	32aa\JJJ	.	.	.	.	.	.	.	.	.	.	.	.	.	.	.
8r	.	16G/	.	16B/	.	16bb\LL	.	.	.	.	.	.	.	8r	.	8r	.	8r	.	8r	.
.	.	16B/JJ)	.	16d/JJ)	.	16ddd\JJ	ff	.	.	.	.	.	.	.	.	.	.	.	.	.	.
!	!	!	!	!	!	!	!	!	!	!	!	!	!	!	!	!	!	!LO:LB:g=original	!	!	!
=69	=69	=69	=69	=69	=69	=69	=69	=69	=69	=69	=69	=69	=69	=69	=69	=69	=69	=69	=69	=69	=69
!	!	!LO:TX:a:t=P:problem:cztery kropki nad nutą	!	!LO:TX:b:t=P:problem:cztery kreseczki pod nutą	!	!	!	!	!	!	!	!	!	!	!	!	!	!	!	!	!
!	!	!	!	!	!	!	!	!LO:TX:a:t=10.	!	!LO:TX:a:t= 10.	!	!LO:TX:a:t=10.	!	!	!	!	!	!	!	!	!
!	!	!	!LO:DY:t=ff.	!	!	!	!	!LO:N:vis=00	!	!LO:N:vis=00	!	!LO:N:vis=00	!	!	!	!	!	!	!	!	!
8D\L	.	8d'\L	ff	8aL 8f#`/	.	32ccc\LLL	.	0r	.	0r	.	0r	.	8d/L	.	8a\L	.	8aa\L	.	8ccc\L	.
.	.	.	.	.	.	32ddd\	.	.	.	.	.	.	.	.	.	.	.	.	.	.	.
.	.	.	.	.	.	32ccc\	.	.	.	.	.	.	.	.	.	.	.	.	.	.	.
.	.	.	.	.	.	32bb\JJJ	.	.	.	.	.	.	.	.	.	.	.	.	.	.	.
8A\	.	8d'\	.	8a 8f#`/	.	32aa\LLL	.	.	.	.	.	.	.	8d/	.	8a\	.	8aa\	.	8ccc\	.
.	.	.	.	.	.	32bb\	.	.	.	.	.	.	.	.	.	.	.	.	.	.	.
.	.	.	.	.	.	32aa\	.	.	.	.	.	.	.	.	.	.	.	.	.	.	.
.	.	.	.	.	.	32gg\JJJ	.	.	.	.	.	.	.	.	.	.	.	.	.	.	.
8F#\	.	8d'\	.	8a 8f#`/	.	32ff#\LLL	.	.	.	.	.	.	.	8d/	.	8a\	.	8ff#\	.	8aa\	.
.	.	.	.	.	.	32gg\	.	.	.	.	.	.	.	.	.	.	.	.	.	.	.
.	.	.	.	.	.	32ff#\	.	.	.	.	.	.	.	.	.	.	.	.	.	.	.
.	.	.	.	.	.	32ee\JJJ	.	.	.	.	.	.	.	.	.	.	.	.	.	.	.
8D\J	.	8d'\J	.	8aJ 8f#`/	.	32dd\LLL	.	.	.	.	.	.	.	8d/J	.	8a\J	.	8ff#\J	.	8aa\J	.
.	.	.	.	.	.	32ee\	.	.	.	.	.	.	.	.	.	.	.	.	.	.	.
.	.	.	.	.	.	32dd\	.	.	.	.	.	.	.	.	.	.	.	.	.	.	.
.	.	.	.	.	.	32cc\JJJ	.	.	.	.	.	.	.	.	.	.	.	.	.	.	.
!	!	!	!	!	!	!	!	!	!	!	!	!	!	!LO:LB:g=original	!	!LO:LB:g=original	!	!	!	!	!
=70	=70	=70	=70	=70	=70	=70	=70	=70	=70	=70	=70	=70	=70	=70	=70	=70	=70	=70	=70	=70	=70
!LO:TX:a:t=P:problem:takty 70-71 zapisane repetycją	!LO:DY:rj:t=ff	!	!	!	!	!	!	!	!	!	!	!	!	!	!	!	!	!	!	!	!
8Gyy 8GG\yy	ff	(16G/LL	.	(16B/LL	.	16b\LL	.	.	.	.	.	.	.	8B/	.	8g\	.	8b\	.	8gg\	.
.	.	16B/	.	16d/	.	32g\L	.	.	.	.	.	.	.	.	.	.	.	.	.	.	.
.	.	.	.	.	.	32b\JJJ	.	.	.	.	.	.	.	.	.	.	.	.	.	.	.
8ryy	.	16G/	.	16B/	.	16dd\LL	.	.	.	.	.	.	.	8r	.	8r	.	8r	.	8r	.
.	.	16B/	.	16d/	.	16dd\JJ	.	.	.	.	.	.	.	.	.	.	.	.	.	.	.
8Gyy 8GG\yy	.	16G/	.	16B/	.	16dd\LL	.	.	.	.	.	.	.	8G/	.	8g\	.	8gg\	.	8bb\	.
.	.	16B/	.	16d/	.	32gg\L	.	.	.	.	.	.	.	.	.	.	.	.	.	.	.
.	.	.	.	.	.	32aa\JJJ	.	.	.	.	.	.	.	.	.	.	.	.	.	.	.
8ryy	.	16G/	.	16B/	.	16bb\LL	.	.	.	.	.	.	.	8r	.	8r	.	8r	.	8r	.
.	.	16B/JJ)	.	16d/JJ)	.	16ddd\JJ	.	.	.	.	.	.	.	.	.	.	.	.	.	.	.
=71	=71	=71	=71	=71	=71	=71	=71	=71	=71	=71	=71	=71	=71	=71	=71	=71	=71	=71	=71	=71	=71
!	!	!	!LO:DY:t=ff	!LO:TX:b:t=P:problem:cztery kreseczki pod nutą	!LO:DY:rj:t=ffo	!	!LO:DY:rj	!	!	!	!	!	!	!	!	!	!	!	!	!	!
8D\Lyy	.	8d\L	ff	8aL 8f#`/	ff	32ccc\LLL	ff	.	.	.	.	.	.	8d/L	.	8a\L	.	8aa\L	.	8ccc\L	.
.	.	.	.	.	.	32ddd\	.	.	.	.	.	.	.	.	.	.	.	.	.	.	.
.	.	.	.	.	.	32ccc\	.	.	.	.	.	.	.	.	.	.	.	.	.	.	.
.	.	.	.	.	.	32bb\JJJ	.	.	.	.	.	.	.	.	.	.	.	.	.	.	.
8A\yy	.	8d\	.	8a 8f#`/	.	32aa\LLL	.	.	.	.	.	.	.	8d/	.	8a\	.	8aa\	.	8ccc\	.
.	.	.	.	.	.	32bb\	.	.	.	.	.	.	.	.	.	.	.	.	.	.	.
.	.	.	.	.	.	32aa\	.	.	.	.	.	.	.	.	.	.	.	.	.	.	.
.	.	.	.	.	.	32gg\JJJ	.	.	.	.	.	.	.	.	.	.	.	.	.	.	.
8F#\yy	.	8d\	.	8a 8f#`/	.	32ff#\LLL	.	.	.	.	.	.	.	8d/	.	8a\	.	8ff#\	.	8aa\	.
.	.	.	.	.	.	32gg\	.	.	.	.	.	.	.	.	.	.	.	.	.	.	.
.	.	.	.	.	.	32ff#\	.	.	.	.	.	.	.	.	.	.	.	.	.	.	.
.	.	.	.	.	.	32ee\JJJ	.	.	.	.	.	.	.	.	.	.	.	.	.	.	.
!	!	!	!	!	!	!LO:LB:g=original	!	!	!	!	!	!	!	!	!	!	!	!	!	!	!
8D\Jyy	.	8d\J	.	8aJ 8f#`/	.	32dd\LLL	.	.	.	.	.	.	.	8d/J	.	8a\J	.	8ff#\J	.	8aa\J	.
.	.	.	.	.	.	32ee\	.	.	.	.	.	.	.	.	.	.	.	.	.	.	.
.	.	.	.	.	.	32dd\	.	.	.	.	.	.	.	.	.	.	.	.	.	.	.
.	.	.	.	.	.	32cc\JJJ	.	.	.	.	.	.	.	.	.	.	.	.	.	.	.
*	*	*Xtremolo	*	*Xtremolo	*	*	*	*	*	*	*	*	*	*	*	*	*	*	*	*	*
!	!	!	!	!LO:LB:g=original	!	!	!	!	!	!	!	!	!	!	!	!	!	!	!	!	!
=72	=72	=72	=72	=72	=72	=72	=72	=72	=72	=72	=72	=72	=72	=72	=72	=72	=72	=72	=72	=72	=72
!LO:TX:a:t=P:problem:mixed beam	!	!	!	!	!	!	!	!	!	!	!	!	!	!	!	!LO:TX:a:t=1	!	!	!	!	!
16GG/LL	.	8e\L	.	8bL 8g/	.	16b\	p	.	.	.	.	.	.	2r	.	2r	.	16b\LL	.	16gg\LL	.
16B\JJ	.	.	.	.	.	8gg\L	.	.	.	.	.	.	.	.	.	.	.	32b\L	.	32gg\L	.
.	.	.	.	.	.	.	.	.	.	.	.	.	.	.	.	.	.	32dd\JJJ	.	32aa\JJJ	.
8d 8D\	.	8d\	.	8b 8g/	.	.	.	.	.	.	.	.	.	.	.	.	.	16gg\	.	16bb\	.
.	.	.	.	.	.	8ffn\	.	.	.	.	.	.	.	.	.	.	.	16r	.	16r	.
!LO:TX:a:t=P:problem:przy caudzie dodatkowa chorągiewka	!	!	!	!	!	!	!	!	!	!	!	!	!	!	!	!	!	!	!	!	!
8c 8C\	.	8cn\	.	8b 8g/	.	.	.	.	.	.	.	.	.	.	.	.	.	16r	.	16r	.
!	!	!	!	!	!	!	!	!	!	!	!	!	!	!	!	!	!	!	!	!LO:LB:g=original	!
.	.	.	.	.	.	8ee\J	.	.	.	.	.	.	.	.	.	.	.	16bb\LL	.	16ddd\LL	.
!LO:TX:a:t=P:problem:przy caudzie dodatkowa chorągiewka	!	!	!	!	!	!	!	!	!	!	!	!	!	!	!	!	!	!	!	!	!
8B 8BB\	.	8B\J	.	8bJ 8g/	.	.	.	.	.	.	.	.	.	.	.	.	.	16gg\JJ	.	16bb\JJ	.
.	.	.	.	.	.	16dd#X\	.	.	.	.	.	.	.	.	.	.	.	16r	.	16r	.
=73	=73	=73	=73	=73	=73	=73	=73	=73	=73	=73	=73	=73	=73	=73	=73	=73	=73	=73	=73	=73	=73
!	!	!	!	!	!	!	!	!LO:N:vis=00	!	!LO:N:vis=00	!	!LO:N:vis=00	!	!	!	!	!	!	!	!	!
8C/L	.	16c\LL	.	32cc\LLL	.	32ee\LLL	.	0r	.	0r	.	0r	.	4r	.	4r	.	16aa\LL	.	16ccc\LL	.
.	.	.	.	32dd\	.	32ff#X\	.	.	.	.	.	.	.	.	.	.	.	.	.	.	.
.	.	16c\	.	32ee\	.	32gg\	.	.	.	.	.	.	.	.	.	.	.	16aa\	.	16ccc\	.
.	.	.	.	32dd\JJJ	.	32ff#\JJJ	.	.	.	.	.	.	.	.	.	.	.	.	.	.	.
8C/J	.	16c\	.	32ee\LLL	.	32gg\LLL	.	.	.	.	.	.	.	.	.	.	.	16aa\	.	16ccc\	.
.	.	.	.	32cc\	.	32ee\	.	.	.	.	.	.	.	.	.	.	.	.	.	.	.
.	.	16c\JJ	.	32b\	.	32dd\	.	.	.	.	.	.	.	.	.	.	.	16aa\JJ	.	16ccc\JJ	.
.	.	.	.	32a\JJJ	.	32cc\JJJ	.	.	.	.	.	.	.	.	.	.	.	.	.	.	.
!	!	!	!	!	!	!	!	!	!	!	!	!	!	!LO:TX:a:t=P:problem:mixed beam	!	!	!	!	!	!	!
8D\L	.	8d\L	.	8g/L	.	8b\L	.	.	.	.	.	.	.	8g\L	.	8b\L	.	8gg\L	.	8bb\L	.
8D\J	.	8d\J	.	8f#/J	.	8a\J	.	.	.	.	.	.	.	8d/J	.	8a\J	.	8ff#\J	.	8aa\J	.
!	!	!	!	!	!	!	!LO:DY:t=fo.	!	!	!	!	!	!	!	!	!	!	!	!	!	!
.	.	.	.	.	.	.	f	.	.	.	.	.	.	.	.	.	.	.	.	.	.
!	!	!LO:LB:g=original	!	!	!	!	!	!	!	!	!	!	!	!	!	!	!	!LO:LB:g=original	!	!	!
=74	=74	=74	=74	=74	=74	=74	=74	=74	=74	=74	=74	=74	=74	=74	=74	=74	=74	=74	=74	=74	=74
8G\	.	8d 8B\	.	8b 8d\	.	16g\LL	.	.	.	.	.	.	.	4r	.	4r	.	16g/LL	.	16gg\LL	.
.	.	.	.	.	.	32b\L	.	.	.	.	.	.	.	.	.	.	.	32b/L	.	32bb\L	.
.	.	.	.	.	.	32cc\JJJ	.	.	.	.	.	.	.	.	.	.	fz	32cc/JJJ	.	32ccc\JJJ	.
8r	.	8r	.	8r	.	16dd\LL	.	.	.	.	.	.	.	.	.	.	.	16dd\LL	.	16ddd\LL	.
.	fz	.	.	.	.	16dd\JJ	.	.	.	.	.	.	.	.	.	.	.	16dd\JJ	.	16ddd\JJ	.
4D\	.	8dL 8c\	.	16cc\LL	.	16dd\LL	.	.	.	.	.	.	.	4d/	fz	4a\	.	8aa\L	.	8ccc\L	.
.	.	.	.	16a\	.	16dd\	.	.	.	.	.	.	.	.	.	.	.	.	.	.	.
.	.	8dJ 8c\	.	16cc\	.	16ee\	.	.	.	.	.	.	.	.	.	.	.	8aa\J	.	8ccc\J	.
.	.	.	.	16a\JJ	.	16ff#\JJ	.	.	.	.	.	.	.	.	.	.	.	.	.	.	.
=75	=75	=75	=75	=75	=75	=75	=75	=75	=75	=75	=75	=75	=75	=75	=75	=75	=75	=75	=75	=75	=75
8G\	.	8d 8B\	.	8b 8d/	.	16gg\LL	.	.	.	.	.	.	.	8B/	.	8g\	.	16g\LL	.	16gg\LL	.
.	.	.	.	.	.	32b\L	.	.	.	.	.	.	.	.	.	.	.	32b\L	.	32bb\L	.
.	.	.	.	.	.	32cc\JJJ	.	.	.	.	.	.	.	.	.	.	.	32cc\JJJ	.	32ccc\JJJ	.
8r	.	8r	.	8r	.	16dd\LL	.	.	.	.	.	.	.	8r	.	8r	.	16dd\LL	.	16ddd\LL	.
.	fz	.	.	.	.	16dd\JJ	.	.	.	.	.	.	.	.	.	.	.	16dd\JJ	.	16ddd\JJ	.
4D\	.	8dL 8c\	.	16cc\LL	.	16dd\LL	.	.	.	.	.	.	.	4d/	fz	4a\	.	16dd\LL	.	16ddd\LL	.
.	.	.	.	16a\	.	16dd\	.	.	.	.	.	.	.	.	.	.	.	16dd\	.	16ddd\	.
.	.	8dJ 8c\	.	16cc\	.	16ee\	.	.	.	.	.	.	.	.	.	.	.	16ee\	.	16eee\	.
.	.	.	.	16a\JJ	.	16ff#\JJ	.	.	.	.	.	.	.	.	.	.	.	16ff#\JJ	.	16fff#\JJ	.
!LO:LB:g=original	!	!	!	!	!	!LO:LB:g=original	!	!	!	!	!	!	!	!LO:LB:g=original	!	!LO:LB:g=original	!	!	!	!	!
=76	=76	=76	=76	=76	=76	=76	=76	=76	=76	=76	=76	=76	=76	=76	=76	=76	=76	=76	=76	=76	=76
!LO:TX:a:t=P:problem:mixed beam	!	!	!	!	!	!	!	!	!	!	!	!	!	!	!	!	!	!	!	!	!
8G\L	.	8dL 8B\	.	8bL 8d/	.	16gg\LL	.	.	.	.	.	.	.	8B/L	.	8g\L	.	8bb\L	.	8ggg\	.
.	.	.	.	.	.	32dd\L	.	.	.	.	.	.	.	.	.	.	.	.	.	.	.
.	.	.	.	.	.	32bb\JJJ	.	.	.	.	.	.	.	.	.	.	.	.	.	.	.
8GG/	.	8d 8B\	.	8b 8d/	.	16gg\LL	.	.	.	.	.	.	.	8B/	.	8g\	.	8gg\J	.	8bb\	.
.	.	.	.	.	.	32dd\L	.	.	.	.	.	.	.	.	.	.	.	.	.	.	.
.	.	.	.	.	.	32b\JJJ	.	.	.	.	.	.	.	.	.	.	.	.	.	.	.
!	!	!	!	!	!	!LO:TX:a:t=P:problem:mixed beam	!	!	!	!	!	!	!	!	!	!	!	!	!	!	!
8BB/	.	8d 8B\	.	8b 8d/	.	8g/L	.	.	.	.	.	.	.	8B/	.	8g\	.	8gg\L	.	8bb\L	.
8D/J	.	8dJ 8B\	.	8bJ 8d/	.	8gg\J	.	.	.	.	.	.	.	8B/J	.	8g\J	.	8gg\J	.	8bb\J	.
=77	=77	=77	=77	=77	=77	=77	=77	=77	=77	=77	=77	=77	=77	=77	=77	=77	=77	=77	=77	=77	=77
!	!	!	!	!	!	!	!	!LO:N:vis=0	!	!LO:N:vis=0	!	!LO:N:vis=0	!	!	!	!	!	!	!	!	!
4G\	.	4d 4B\	.	4b 4d/	.	4G/	.	1r	.	1r	.	1r	.	4B/	.	4g\	.	4gg\	.	4bb\	.
!	!	!	!	!	!	!	!	!	!	!	!	!	!	!	!	!	!	!	!	!LO:LB:g=original	!
4G\	.	4d 4B\	.	4b 4d/	.	4gg 4b 4d\	.	.	.	.	.	.	.	4B/	.	4g\	.	4bb\	.	4ggg\	.
!	!	!	!	!LO:LB:g=original	!	!	!	!	!	!	!	!	!	!	!	!	!	!	!	!	!
=78	=78	=78	=78	=78	=78	=78	=78	=78	=78	=78	=78	=78	=78	=78	=78	=78	=78	=78	=78	=78	=78
4G\	.	4d 4B\	.	4b 4d 4G/	.	4gg 4b 4d\	.	.	.	.	.	.	.	4B/	.	4g\	.	4bb\	.	4ggg\	.
4r	.	4r	.	4r	.	4r	.	.	.	.	.	.	.	4r	.	4r	.	4r	.	4r	.
!LO:TX:b:B:t=78.:problem:po kresce taktowej	!	!LO:TX:b:B:t=78.:problem:po kresce taktowej	!	!LO:TX:b:B:t=78.:problem:po kresce taktowej	!	!LO:TX:b:B:t=78.:problem:po kresce taktowej	!	!LO:TX:b:B:t=78.:problem:po kresce taktowej, wcześniej jedna pauza skreślona	!	!LO:TX:a:t=77.:problem:po kresce taktowej, wcześniej jedna pauza skreślona	!	!LO:TX:a:t=77.:problem:po kresce taktowej, wcześniej jedna pauza skreślona	!	!LO:TX:b:B:t=78.:problem:po kresce taktowej	!	!LO:TX:b:B:t=78.:problem:po kresce taktowej	!	!LO:TX:b:B:t=78.:problem:po kresce taktowej	!	!LO:TX:b:B:t=78.:problem:po kresce taktowej	!
==	==	==	==	==	==	==	==	==	==	==	==	==	==	==	==	==	==	==	==	==	==
*-	*-	*-	*-	*-	*-	*-	*-	*-	*-	*-	*-	*-	*-	*-	*-	*-	*-	*-	*-	*-	*-
!!!system-decoration: [g1][g2][g3][g4]
!!!RDF**kern: > = above
!!!RDF**kern: < = below
!!!RDF**dynam: p = "p:"
!!!RDF**dynam: f = "f:"
!!!RDF**dynam: pp = "pp:"
!!!RDF**dynam: ff = "ffo."
!!!ENC: Marta Lawrence
!!!END: 2020-07-10
!!!ENC: Kamil Watkowski
!!!END: 2020-02-23
